; G-Code generated by Simplify3D(R) Version 3.1.0
; Nov 19, 2016 at 8:29:27 AM
; Settings Summary
;   processName,Process2
;   applyToModels,Typo
;   profileName,LulzBot TAZ 5 (modified)
;   profileVersion,2015-05-01 08:00:00
;   baseProfile,
;   printMaterial,hatchbox pla
;   printQuality,Medium
;   printExtruders,
;   extruderName,Primary Extruder
;   extruderToolheadNumber,0
;   extruderDiameter,0.5
;   extruderAutoWidth,1
;   extruderWidth,0.6
;   extrusionMultiplier,1
;   extruderUseRetract,1
;   extruderRetractionDistance,2.5
;   extruderExtraRestartDistance,0
;   extruderRetractionZLift,0
;   extruderRetractionSpeed,1800
;   extruderUseCoasting,0
;   extruderCoastingDistance,0.2
;   extruderUseWipe,0
;   extruderWipeDistance,5
;   primaryExtruder,0
;   layerHeight,0.2
;   topSolidLayers,6
;   bottomSolidLayers,3
;   perimeterOutlines,2
;   printPerimetersInsideOut,1
;   startPointOption,2
;   startPointOriginX,0
;   startPointOriginY,0
;   startPointOriginZ,300
;   sequentialIslands,0
;   spiralVaseMode,0
;   firstLayerHeightPercentage,120
;   firstLayerWidthPercentage,180
;   firstLayerUnderspeed,0.5
;   useRaft,0
;   raftExtruder,0
;   raftLayers,3
;   raftOffset,3
;   raftSeparationDistance,0.14
;   raftInfill,85
;   disableRaftBaseLayers,0
;   useSkirt,1
;   skirtExtruder,0
;   skirtLayers,1
;   skirtOutlines,2
;   skirtOffset,2
;   usePrimePillar,0
;   primePillarExtruder,999
;   primePillarWidth,12
;   primePillarLocation,7
;   primePillarSpeedMultiplier,1
;   useOozeShield,0
;   oozeShieldExtruder,999
;   oozeShieldOffset,2
;   oozeShieldOutlines,1
;   oozeShieldSidewallShape,1
;   oozeShieldSidewallAngle,30
;   oozeShieldSpeedMultiplier,1
;   infillExtruder,0
;   internalInfillPattern,Rectilinear
;   externalInfillPattern,Rectilinear
;   infillPercentage,30
;   outlineOverlapPercentage,30
;   infillExtrusionWidthPercentage,200
;   minInfillLength,5
;   infillLayerInterval,1
;   infillAngles,45,-45
;   overlapInfillAngles,0
;   generateSupport,0
;   supportExtruder,0
;   supportInfillPercentage,30
;   supportExtraInflation,1
;   denseSupportLayers,0
;   denseSupportInfillPercentage,70
;   supportLayerInterval,1
;   supportHorizontalPartOffset,0.3
;   supportUpperSeparationLayers,1
;   supportLowerSeparationLayers,2
;   supportType,0
;   supportGridSpacing,4
;   maxOverhangAngle,45
;   supportAngles,0
;   temperatureName,Primary Extruder,Heated Bed
;   temperatureNumber,0,1
;   temperatureSetpointCount,1,1
;   temperatureSetpointLayers,1,1
;   temperatureSetpointTemperatures,210,70
;   temperatureStabilizeAtStartup,1,1
;   temperatureHeatedBed,0,1
;   temperatureRelayBetweenLayers,0,0
;   temperatureRelayBetweenLoops,0,0
;   fanLayers,1,2
;   fanSpeeds,0,100
;   blipFanToFullPower,1
;   adjustSpeedForCooling,1
;   minSpeedLayerTime,15
;   minCoolingSpeedSlowdown,20
;   increaseFanForCooling,0
;   minFanLayerTime,45
;   maxCoolingFanSpeed,100
;   increaseFanForBridging,0
;   bridgingFanSpeed,100
;   use5D,1
;   relativeEdistances,0
;   allowEaxisZeroing,1
;   independentExtruderAxes,0
;   includeM10123,0
;   stickySupport,1
;   applyToolheadOffsets,0
;   gcodeXoffset,0
;   gcodeYoffset,0
;   gcodeZoffset,0
;   overrideMachineDefinition,1
;   machineTypeOverride,0
;   strokeXoverride,298
;   strokeYoverride,275
;   strokeZoverride,250
;   originOffsetXoverride,0
;   originOffsetYoverride,0
;   originOffsetZoverride,0
;   homeXdirOverride,-1
;   homeYdirOverride,-1
;   homeZdirOverride,-1
;   flipXoverride,1
;   flipYoverride,-1
;   flipZoverride,1
;   toolheadOffsets,0,0|0,0|0,0|0,0|0,0|0,0
;   overrideFirmwareConfiguration,1
;   firmwareTypeOverride,RepRap (Marlin/Repetier/Sprinter)
;   GPXconfigOverride,r2
;   baudRateOverride,115200
;   overridePrinterModels,1
;   printerModelsOverride,LulzBot_TAZ3.stl
;   startingGcode,G28 ; home all axes
;   layerChangeGcode,
;   retractionGcode,
;   toolChangeGcode,
;   endingGcode,M104 S0 ; turn off extruder,M140 S0 ; turn off bed,G28 X0 ; home X axis,M84 ; disable motors
;   exportFileFormat,gcode
;   celebration,0
;   celebrationSong,Random Song
;   postProcessing,
;   defaultSpeed,3600
;   outlineUnderspeed,0.5
;   solidInfillUnderspeed,0.8
;   supportUnderspeed,0.8
;   rapidXYspeed,4800
;   rapidZspeed,1000
;   minBridgingArea,50
;   bridgingExtraInflation,0
;   bridgingExtrusionMultiplier,1
;   bridgingSpeedMultiplier,1
;   filamentDiameter,3
;   filamentPricePerKg,46
;   filamentDensity,1.25
;   useMinPrintHeight,0
;   minPrintHeight,0
;   useMaxPrintHeight,0
;   maxPrintHeight,0
;   useDiaphragm,0
;   diaphragmLayerInterval,20
;   robustSlicing,1
;   mergeAllIntoSolid,0
;   onlyRetractWhenCrossingOutline,1
;   retractBetweenLayers,1
;   useRetractionMinTravel,0
;   retractionMinTravel,3
;   retractWhileWiping,0
;   onlyWipeOutlines,1
;   avoidCrossingOutline,0
;   maxMovementDetourFactor,3
;   toolChangeRetractionDistance,12
;   toolChangeExtraRestartDistance,-0.5
;   toolChangeRetractionSpeed,600
;   allowThinWallGapFill,1
;   thinWallAllowedOverlapPercentage,10
;   horizontalSizeCompensation,0
G90
M82
M106 S0
M140 S70
M190 S70
M104 S210 T0
M109 S210 T0
G28 ; home all axes
G92 E0
G1 E-2.5000 F1800
G1 Z0.240 F1000
; layer 1, Z = 0.24
T0
; tool H0.240 W1.080
; skirt
G1 X145.045 Y89.404 F4800
G1 E0.0000 F540
G92 E0
G1 X145.406 Y88.928 E0.0219 F1800
G1 X145.445 Y88.883 E0.0241
G1 X145.671 Y88.654 E0.0359
G1 X145.715 Y88.615 E0.0380
G1 X146.195 Y88.242 E0.0603
G1 X146.257 Y88.201 E0.0631
G1 X146.614 Y88.009 E0.0779
G1 X146.682 Y87.979 E0.0806
G1 X147.409 Y87.730 E0.1088
G1 X147.480 Y87.711 E0.1115
G1 X147.877 Y87.645 E0.1263
G1 X147.950 Y87.638 E0.1290
G1 X152.254 Y87.625 E0.2868
G1 X152.302 Y87.627 E0.2885
G1 X152.562 Y87.654 E0.2981
G1 X152.609 Y87.662 E0.2999
G1 X152.968 Y87.738 E0.3133
G1 X153.008 Y87.749 E0.3149
G1 X153.222 Y87.815 E0.3231
G1 X153.261 Y87.829 E0.3246
G1 X153.772 Y88.041 E0.3449
G1 X153.837 Y88.075 E0.3476
G1 X154.178 Y88.287 E0.3623
G1 X154.237 Y88.331 E0.3650
G1 X154.845 Y88.864 E0.3946
G1 X154.905 Y88.928 E0.3979
G1 X155.199 Y89.310 E0.4155
G1 X155.245 Y89.385 E0.4188
G1 X155.602 Y90.108 E0.4483
G1 X155.629 Y90.176 E0.4510
G1 X155.746 Y90.558 E0.4656
G1 X155.761 Y90.629 E0.4683
G1 X155.831 Y91.145 E0.4874
G1 X155.834 Y91.175 E0.4885
G1 X155.845 Y91.336 E0.4944
G1 X155.845 Y91.344 E0.4947
G1 X166.252 Y91.319 E0.8764
G1 X166.270 Y91.320 E0.8770
G1 X166.364 Y91.323 E0.8805
G1 X166.381 Y91.324 E0.8811
G1 X166.592 Y91.340 E0.8888
G1 X166.593 Y91.325 E0.8894
G1 X166.601 Y91.180 E0.8947
G1 X166.603 Y91.154 E0.8957
G1 X166.660 Y90.666 E0.9137
G1 X166.672 Y90.603 E0.9160
G1 X166.760 Y90.268 E0.9287
G1 X166.781 Y90.208 E0.9311
G1 X167.003 Y89.679 E0.9521
G1 X167.029 Y89.628 E0.9542
G1 X167.188 Y89.355 E0.9658
G1 X167.220 Y89.307 E0.9679
G1 X167.583 Y88.835 E0.9897
G1 X167.632 Y88.781 E0.9924
G1 X167.924 Y88.508 E1.0071
G1 X167.982 Y88.462 E1.0098
G1 X168.647 Y88.017 E1.0391
G1 X168.724 Y87.976 E1.0423
G1 X169.162 Y87.792 E1.0598
G1 X169.245 Y87.767 E1.0629
G1 X169.959 Y87.620 E1.0896
G1 X170.003 Y87.613 E1.0913
G1 X170.248 Y87.588 E1.1003
G1 X170.293 Y87.586 E1.1020
G1 X186.304 Y87.555 E1.6891
G1 X186.320 Y87.556 E1.6897
G1 X186.404 Y87.558 E1.6927
G1 X186.419 Y87.559 E1.6933
G1 X186.761 Y87.582 E1.7059
G1 X186.783 Y87.584 E1.7067
G1 X186.903 Y87.598 E1.7111
G1 X186.925 Y87.601 E1.7119
G1 X187.328 Y87.668 E1.7269
G1 X187.365 Y87.676 E1.7283
G1 X187.568 Y87.728 E1.7360
G1 X187.605 Y87.739 E1.7374
G1 X188.010 Y87.880 E1.7531
G1 X188.037 Y87.891 E1.7542
G1 X188.183 Y87.952 E1.7600
G1 X188.209 Y87.964 E1.7611
G1 X188.602 Y88.162 E1.7772
G1 X188.639 Y88.182 E1.7787
G1 X188.833 Y88.304 E1.7871
G1 X188.868 Y88.328 E1.7887
G1 X189.474 Y88.790 E1.8166
G1 X189.519 Y88.829 E1.8188
G1 X189.748 Y89.058 E1.8307
G1 X189.787 Y89.103 E1.8329
G1 X190.257 Y89.714 E1.8611
G1 X190.282 Y89.750 E1.8627
G1 X190.408 Y89.953 E1.8715
G1 X190.429 Y89.991 E1.8731
G1 X190.646 Y90.428 E1.8910
G1 X190.664 Y90.470 E1.8927
G1 X190.752 Y90.704 E1.9018
G1 X190.766 Y90.748 E1.9035
G1 X190.903 Y91.273 E1.9234
G1 X190.929 Y91.269 E1.9244
G1 X190.965 Y91.265 E1.9257
G1 X191.158 Y91.249 E1.9328
G1 X191.194 Y91.248 E1.9341
G1 X201.461 Y91.221 E2.3106
G1 X201.472 Y91.221 E2.3111
G1 X201.537 Y91.223 E2.3134
G1 X201.549 Y91.223 E2.3139
G1 X201.955 Y91.244 E2.3288
G1 X202.004 Y91.249 E2.3306
G1 X202.269 Y91.291 E2.3404
G1 X202.317 Y91.302 E2.3422
G1 X203.022 Y91.496 E2.3690
G1 X203.059 Y91.508 E2.3705
G1 X203.261 Y91.583 E2.3784
G1 X203.298 Y91.599 E2.3798
G1 X203.719 Y91.800 E2.3970
G1 X203.760 Y91.822 E2.3987
G1 X203.977 Y91.954 E2.4080
G1 X203.998 Y91.969 E2.4089
G1 X204.519 Y91.675 E2.4308
G1 X204.555 Y91.656 E2.4323
G1 X204.755 Y91.566 E2.4404
G1 X204.793 Y91.551 E2.4419
G1 X205.242 Y91.394 E2.4593
G1 X205.285 Y91.382 E2.4610
G1 X205.522 Y91.325 E2.4699
G1 X205.566 Y91.317 E2.4715
G1 X206.250 Y91.223 E2.4968
G1 X206.280 Y91.220 E2.4980
G1 X206.444 Y91.209 E2.5040
G1 X206.474 Y91.208 E2.5051
G1 X216.628 Y91.187 E2.8774
G1 X216.647 Y91.188 E2.8781
G1 X216.752 Y91.192 E2.8820
G1 X216.771 Y91.193 E2.8827
G1 X217.127 Y91.223 E2.8958
G1 X217.150 Y91.225 E2.8966
G1 X217.277 Y91.243 E2.9013
G1 X217.301 Y91.246 E2.9022
G1 X217.725 Y91.327 E2.9181
G1 X217.769 Y91.338 E2.9197
G1 X218.002 Y91.407 E2.9286
G1 X218.045 Y91.421 E2.9303
G1 X218.761 Y91.713 E2.9586
G1 X218.796 Y91.730 E2.9601
G1 X219.094 Y91.567 E2.9725
G1 X219.162 Y91.536 E2.9753
G1 X219.892 Y91.282 E3.0036
G1 X219.965 Y91.263 E3.0064
G1 X220.370 Y91.194 E3.0214
G1 X220.445 Y91.188 E3.0242
G1 X224.792 Y91.181 E3.1836
G1 X224.853 Y91.185 E3.1858
G1 X225.186 Y91.231 E3.1982
G1 X225.247 Y91.243 E3.2004
G1 X225.786 Y91.394 E3.2210
G1 X225.837 Y91.412 E3.2229
G1 X226.108 Y91.524 E3.2337
G1 X226.157 Y91.547 E3.2357
G1 X226.674 Y91.838 E3.2574
G1 X226.736 Y91.880 E3.2602
G1 X227.056 Y92.138 E3.2753
G1 X227.111 Y92.191 E3.2780
G1 X227.357 Y92.470 E3.2917
G1 X227.381 Y92.440 E3.2931
G1 X227.421 Y92.394 E3.2954
G1 X227.657 Y92.160 E3.3075
G1 X227.703 Y92.120 E3.3098
G1 X228.148 Y91.786 E3.3302
G1 X228.193 Y91.756 E3.3322
G1 X228.448 Y91.608 E3.3430
G1 X228.496 Y91.584 E3.3449
G1 X229.005 Y91.366 E3.3652
G1 X229.061 Y91.346 E3.3674
G1 X229.375 Y91.258 E3.3794
G1 X229.433 Y91.246 E3.3816
G1 X229.915 Y91.179 E3.3994
G1 X229.944 Y91.175 E3.4005
G1 X230.102 Y91.164 E3.4063
G1 X230.131 Y91.162 E3.4074
G1 X232.239 Y91.141 E3.4846
G1 X232.252 Y91.141 E3.4851
G1 X232.320 Y91.142 E3.4876
G1 X232.333 Y91.143 E3.4881
G1 X232.594 Y91.155 E3.4977
G1 X232.629 Y91.158 E3.4990
G1 X232.821 Y91.182 E3.5060
G1 X232.856 Y91.188 E3.5073
G1 X233.224 Y91.264 E3.5211
G1 X233.278 Y91.278 E3.5232
G1 X233.564 Y91.375 E3.5343
G1 X233.615 Y91.396 E3.5363
G1 X234.179 Y91.669 E3.5592
G1 X234.246 Y91.708 E3.5621
G1 X234.591 Y91.957 E3.5777
G1 X234.650 Y92.007 E3.5806
G1 X235.108 Y92.475 E3.6045
G1 X235.151 Y92.527 E3.6070
G1 X235.367 Y92.826 E3.6205
G1 X235.402 Y92.884 E3.6230
G1 X235.727 Y93.517 E3.6491
G1 X235.762 Y93.609 E3.6527
G1 X235.898 Y94.130 E3.6725
G1 X235.912 Y94.228 E3.6761
G1 X235.942 Y95.037 E3.7058
G1 X235.940 Y95.093 E3.7079
G1 X235.913 Y95.397 E3.7190
G1 X235.905 Y95.453 E3.7211
G1 X233.683 Y105.736 E4.1069
G1 X233.616 Y106.259 E4.1262
G1 X233.605 Y106.317 E4.1284
G1 X233.522 Y106.629 E4.1402
G1 X233.503 Y106.686 E4.1424
G1 X233.192 Y107.442 E4.1724
G1 X233.165 Y107.497 E4.1746
G1 X232.997 Y107.786 E4.1869
G1 X232.962 Y107.837 E4.1892
G1 X232.469 Y108.468 E4.2186
G1 X232.433 Y108.509 E4.2205
G1 X232.226 Y108.717 E4.2313
G1 X232.186 Y108.753 E4.2333
G1 X231.585 Y109.227 E4.2613
G1 X231.545 Y109.255 E4.2631
G1 X231.318 Y109.397 E4.2730
G1 X231.274 Y109.421 E4.2748
G1 X230.827 Y109.637 E4.2930
G1 X230.789 Y109.653 E4.2945
G1 X230.576 Y109.732 E4.3028
G1 X230.536 Y109.745 E4.3044
G1 X229.844 Y109.933 E4.3307
G1 X229.800 Y109.942 E4.3323
G1 X229.561 Y109.982 E4.3412
G1 X229.516 Y109.987 E4.3429
G1 X229.114 Y110.014 E4.3577
G1 X229.099 Y110.014 E4.3582
G1 X229.020 Y110.017 E4.3611
G1 X229.005 Y110.017 E4.3616
G1 X220.485 Y110.028 E4.6741
G1 X220.412 Y110.022 E4.6768
G1 X220.016 Y109.957 E4.6914
G1 X219.945 Y109.939 E4.6941
G1 X219.231 Y109.698 E4.7218
G1 X219.167 Y109.671 E4.7243
G1 X218.829 Y109.495 E4.7383
G1 X218.824 Y109.492 E4.7385
G1 X218.541 Y109.632 E4.7501
G1 X218.515 Y109.644 E4.7512
G1 X218.373 Y109.703 E4.7568
G1 X218.347 Y109.713 E4.7578
G1 X217.927 Y109.859 E4.7741
G1 X217.883 Y109.872 E4.7758
G1 X217.642 Y109.930 E4.7849
G1 X217.597 Y109.938 E4.7866
G1 X216.912 Y110.029 E4.8119
G1 X216.883 Y110.032 E4.8130
G1 X216.724 Y110.042 E4.8188
G1 X216.694 Y110.043 E4.8199
G1 X206.516 Y110.059 E5.1931
G1 X206.489 Y110.059 E5.1941
G1 X206.341 Y110.050 E5.1996
G1 X206.313 Y110.047 E5.2006
G1 X205.631 Y109.965 E5.2258
G1 X205.586 Y109.957 E5.2275
G1 X205.338 Y109.901 E5.2368
G1 X205.293 Y109.889 E5.2385
G1 X204.827 Y109.731 E5.2565
G1 X204.786 Y109.714 E5.2582
G1 X204.564 Y109.613 E5.2671
G1 X204.524 Y109.593 E5.2688
G1 X204.040 Y109.312 E5.2893
G1 X204.025 Y109.323 E5.2899
G1 X203.808 Y109.456 E5.2993
G1 X203.767 Y109.479 E5.3010
G1 X203.333 Y109.688 E5.3187
G1 X203.296 Y109.704 E5.3201
G1 X203.089 Y109.781 E5.3282
G1 X203.050 Y109.794 E5.3297
G1 X202.348 Y109.987 E5.3565
G1 X202.301 Y109.998 E5.3582
G1 X202.047 Y110.040 E5.3677
G1 X202.000 Y110.045 E5.3694
G1 X201.597 Y110.068 E5.3842
G1 X201.584 Y110.069 E5.3847
G1 X201.515 Y110.071 E5.3872
G1 X201.503 Y110.071 E5.3877
G1 X191.362 Y110.094 E5.7595
G1 X191.333 Y110.093 E5.7606
G1 X191.173 Y110.083 E5.7664
G1 X191.144 Y110.080 E5.7675
G1 X190.464 Y109.992 E5.7927
G1 X190.420 Y109.984 E5.7943
G1 X190.183 Y109.929 E5.8032
G1 X190.140 Y109.917 E5.8049
G1 X189.717 Y109.773 E5.8212
G1 X189.689 Y109.763 E5.8223
G1 X189.539 Y109.701 E5.8283
G1 X189.512 Y109.688 E5.8294
G1 X189.232 Y109.550 E5.8408
G1 X189.029 Y109.685 E5.8498
G1 X188.964 Y109.721 E5.8525
G1 X188.599 Y109.886 E5.8672
G1 X188.529 Y109.910 E5.8699
G1 X187.946 Y110.066 E5.8920
G1 X187.890 Y110.077 E5.8941
G1 X187.581 Y110.118 E5.9056
G1 X187.523 Y110.122 E5.9077
G1 X185.252 Y110.136 E5.9910
G1 X185.203 Y110.134 E5.9928
G1 X184.942 Y110.107 E6.0024
G1 X184.894 Y110.100 E6.0042
G1 X184.221 Y109.957 E6.0294
G1 X184.154 Y109.937 E6.0320
G1 X183.798 Y109.802 E6.0459
G1 X183.735 Y109.772 E6.0485
G1 X183.260 Y109.501 E6.0685
G1 X183.224 Y109.478 E6.0701
G1 X183.037 Y109.346 E6.0785
G1 X183.004 Y109.321 E6.0800
G1 X182.697 Y109.059 E6.0948
G1 X182.653 Y109.016 E6.0971
G1 X182.430 Y108.767 E6.1093
G1 X182.393 Y108.719 E6.1116
G1 X181.961 Y108.077 E6.1399
G1 X181.919 Y107.999 E6.1432
G1 X181.732 Y107.550 E6.1610
G1 X181.706 Y107.465 E6.1643
G1 X181.563 Y106.751 E6.1910
G1 X181.556 Y106.707 E6.1926
G1 X181.532 Y106.469 E6.2014
G1 X181.530 Y106.425 E6.2030
G1 X181.530 Y106.319 E6.2069
G1 X181.412 Y106.351 E6.2114
G1 X181.355 Y106.362 E6.2135
G1 X181.038 Y106.404 E6.2252
G1 X180.980 Y106.407 E6.2274
G1 X178.562 Y106.409 E6.3160
G1 X178.505 Y106.406 E6.3181
G1 X178.198 Y106.367 E6.3294
G1 X178.142 Y106.356 E6.3315
G1 X178.014 Y106.323 E6.3364
G1 X178.014 Y106.438 E6.3406
G1 X178.012 Y106.482 E6.3422
G1 X177.989 Y106.721 E6.3510
G1 X177.983 Y106.765 E6.3526
G1 X177.848 Y107.449 E6.3782
G1 X177.826 Y107.525 E6.3811
G1 X177.672 Y107.924 E6.3968
G1 X177.637 Y107.995 E6.3997
G1 X177.323 Y108.515 E6.4220
G1 X177.293 Y108.559 E6.4239
G1 X177.113 Y108.790 E6.4347
G1 X177.078 Y108.830 E6.4366
G1 X176.688 Y109.223 E6.4569
G1 X176.643 Y109.263 E6.4591
G1 X176.384 Y109.462 E6.4711
G1 X176.334 Y109.496 E6.4733
G1 X175.846 Y109.777 E6.4939
G1 X175.795 Y109.802 E6.4960
G1 X175.507 Y109.922 E6.5075
G1 X175.452 Y109.941 E6.5096
G1 X174.915 Y110.089 E6.5300
G1 X174.857 Y110.101 E6.5322
G1 X174.535 Y110.145 E6.5441
G1 X174.476 Y110.149 E6.5463
G1 X170.342 Y110.163 E6.6979
G1 X170.298 Y110.161 E6.6995
G1 X170.061 Y110.139 E6.7082
G1 X170.018 Y110.133 E6.7098
G1 X169.292 Y109.993 E6.7369
G1 X169.203 Y109.966 E6.7404
G1 X168.825 Y109.807 E6.7554
G1 X168.785 Y109.824 E6.7570
G1 X168.065 Y110.071 E6.7849
G1 X167.994 Y110.089 E6.7876
G1 X167.601 Y110.156 E6.8022
G1 X167.529 Y110.162 E6.8049
G1 X165.244 Y110.176 E6.8887
G1 X165.207 Y110.175 E6.8900
