; G-Code generated by Simplify3D(R) Version 3.1.0
; Nov 19, 2016 at 8:24:55 AM
; Settings Summary
;   processName,Process1
;   applyToModels,EyeBallSupportLifeCamHDLeftV1,EyeBallSupportLifeCamHDRightV1,EyeHingeCurveV1,EyeHingeV2,EyePlateLeftV1,EyePlateRightV1,EyeSupportV4,EyeTo NoseV5
;   profileName,LulzBot TAZ 5 (modified)
;   profileVersion,2015-05-01 08:00:00
;   baseProfile,
;   printMaterial,hatchbox pla
;   printQuality,Medium
;   printExtruders,
;   extruderName,Primary Extruder
;   extruderToolheadNumber,0
;   extruderDiameter,0.5
;   extruderAutoWidth,1
;   extruderWidth,0.6
;   extrusionMultiplier,1
;   extruderUseRetract,1
;   extruderRetractionDistance,2.5
;   extruderExtraRestartDistance,0
;   extruderRetractionZLift,0
;   extruderRetractionSpeed,1800
;   extruderUseCoasting,0
;   extruderCoastingDistance,0.2
;   extruderUseWipe,0
;   extruderWipeDistance,5
;   primaryExtruder,0
;   layerHeight,0.2
;   topSolidLayers,6
;   bottomSolidLayers,3
;   perimeterOutlines,2
;   printPerimetersInsideOut,1
;   startPointOption,2
;   startPointOriginX,0
;   startPointOriginY,0
;   startPointOriginZ,300
;   sequentialIslands,0
;   spiralVaseMode,0
;   firstLayerHeightPercentage,120
;   firstLayerWidthPercentage,180
;   firstLayerUnderspeed,0.5
;   useRaft,0
;   raftExtruder,0
;   raftLayers,3
;   raftOffset,3
;   raftSeparationDistance,0.14
;   raftInfill,85
;   disableRaftBaseLayers,0
;   useSkirt,1
;   skirtExtruder,0
;   skirtLayers,1
;   skirtOutlines,2
;   skirtOffset,2
;   usePrimePillar,0
;   primePillarExtruder,999
;   primePillarWidth,12
;   primePillarLocation,7
;   primePillarSpeedMultiplier,1
;   useOozeShield,0
;   oozeShieldExtruder,999
;   oozeShieldOffset,2
;   oozeShieldOutlines,1
;   oozeShieldSidewallShape,1
;   oozeShieldSidewallAngle,30
;   oozeShieldSpeedMultiplier,1
;   infillExtruder,0
;   internalInfillPattern,Rectilinear
;   externalInfillPattern,Rectilinear
;   infillPercentage,30
;   outlineOverlapPercentage,30
;   infillExtrusionWidthPercentage,200
;   minInfillLength,5
;   infillLayerInterval,1
;   infillAngles,45,-45
;   overlapInfillAngles,0
;   generateSupport,0
;   supportExtruder,0
;   supportInfillPercentage,30
;   supportExtraInflation,1
;   denseSupportLayers,0
;   denseSupportInfillPercentage,70
;   supportLayerInterval,1
;   supportHorizontalPartOffset,0.3
;   supportUpperSeparationLayers,1
;   supportLowerSeparationLayers,2
;   supportType,0
;   supportGridSpacing,4
;   maxOverhangAngle,45
;   supportAngles,0
;   temperatureName,Primary Extruder,Heated Bed
;   temperatureNumber,0,1
;   temperatureSetpointCount,1,1
;   temperatureSetpointLayers,1,1
;   temperatureSetpointTemperatures,210,70
;   temperatureStabilizeAtStartup,1,1
;   temperatureHeatedBed,0,1
;   temperatureRelayBetweenLayers,0,0
;   temperatureRelayBetweenLoops,0,0
;   fanLayers,1,2
;   fanSpeeds,0,100
;   blipFanToFullPower,1
;   adjustSpeedForCooling,1
;   minSpeedLayerTime,15
;   minCoolingSpeedSlowdown,20
;   increaseFanForCooling,0
;   minFanLayerTime,45
;   maxCoolingFanSpeed,100
;   increaseFanForBridging,0
;   bridgingFanSpeed,100
;   use5D,1
;   relativeEdistances,0
;   allowEaxisZeroing,1
;   independentExtruderAxes,0
;   includeM10123,0
;   stickySupport,1
;   applyToolheadOffsets,0
;   gcodeXoffset,0
;   gcodeYoffset,0
;   gcodeZoffset,0
;   overrideMachineDefinition,1
;   machineTypeOverride,0
;   strokeXoverride,298
;   strokeYoverride,275
;   strokeZoverride,250
;   originOffsetXoverride,0
;   originOffsetYoverride,0
;   originOffsetZoverride,0
;   homeXdirOverride,-1
;   homeYdirOverride,-1
;   homeZdirOverride,-1
;   flipXoverride,1
;   flipYoverride,-1
;   flipZoverride,1
;   toolheadOffsets,0,0|0,0|0,0|0,0|0,0|0,0
;   overrideFirmwareConfiguration,1
;   firmwareTypeOverride,RepRap (Marlin/Repetier/Sprinter)
;   GPXconfigOverride,r2
;   baudRateOverride,115200
;   overridePrinterModels,1
;   printerModelsOverride,LulzBot_TAZ3.stl
;   startingGcode,G28 ; home all axes
;   layerChangeGcode,
;   retractionGcode,
;   toolChangeGcode,
;   endingGcode,M104 S0 ; turn off extruder,M140 S0 ; turn off bed,G28 X0 ; home X axis,M84 ; disable motors
;   exportFileFormat,gcode
;   celebration,0
;   celebrationSong,Random Song
;   postProcessing,
;   defaultSpeed,3600
;   outlineUnderspeed,0.5
;   solidInfillUnderspeed,0.8
;   supportUnderspeed,0.8
;   rapidXYspeed,4800
;   rapidZspeed,1000
;   minBridgingArea,50
;   bridgingExtraInflation,0
;   bridgingExtrusionMultiplier,1
;   bridgingSpeedMultiplier,1
;   filamentDiameter,3
;   filamentPricePerKg,46
;   filamentDensity,1.25
;   useMinPrintHeight,0
;   minPrintHeight,0
;   useMaxPrintHeight,0
;   maxPrintHeight,0
;   useDiaphragm,0
;   diaphragmLayerInterval,20
;   robustSlicing,1
;   mergeAllIntoSolid,0
;   onlyRetractWhenCrossingOutline,1
;   retractBetweenLayers,1
;   useRetractionMinTravel,0
;   retractionMinTravel,3
;   retractWhileWiping,0
;   onlyWipeOutlines,1
;   avoidCrossingOutline,0
;   maxMovementDetourFactor,3
;   toolChangeRetractionDistance,12
;   toolChangeExtraRestartDistance,-0.5
;   toolChangeRetractionSpeed,600
;   allowThinWallGapFill,1
;   thinWallAllowedOverlapPercentage,10
;   horizontalSizeCompensation,0
G90
M82
M106 S0
M140 S70
M190 S70
M104 S210 T0
M109 S210 T0
G28 ; home all axes
G92 E0
G1 E-2.5000 F1800
G1 Z0.240 F1000
; layer 1, Z = 0.24
T0
; tool H0.240 W1.080
; skirt
G1 X61.288 Y135.130 F4800
G1 E0.0000 F540
G92 E0
G1 X72.795 Y135.130 E0.4220 F1800
G1 X73.125 Y135.266 E0.4351
G1 X74.549 Y136.685 E0.5088
G1 X74.686 Y137.014 E0.5219
G1 X74.717 Y145.853 E0.8460
G1 X85.912 Y145.853 E1.2565
G1 X86.108 Y145.897 E1.2638
G1 X87.106 Y146.372 E1.3043
G1 X87.263 Y146.496 E1.3117
G1 X87.805 Y147.163 E1.3432
G1 X87.828 Y147.194 E1.3446
G1 X87.949 Y147.373 E1.3525
G1 X87.969 Y147.407 E1.3540
G1 X89.672 Y150.479 E1.4828
G1 X89.699 Y150.537 E1.4851
G1 X89.823 Y150.862 E1.4979
G1 X89.842 Y150.923 E1.5002
G1 X90.236 Y152.665 E1.5657
G1 X90.629 Y150.923 E1.6312
G1 X90.648 Y150.862 E1.6335
G1 X90.772 Y150.537 E1.6463
G1 X90.799 Y150.479 E1.6486
G1 X92.502 Y147.407 E1.7774
G1 X92.522 Y147.373 E1.7789
G1 X92.643 Y147.194 E1.7868
G1 X92.666 Y147.163 E1.7882
G1 X93.208 Y146.496 E1.8197
G1 X93.365 Y146.372 E1.8271
G1 X94.363 Y145.897 E1.8676
G1 X94.559 Y145.853 E1.8749
G1 X105.754 Y145.853 E2.2854
G1 X105.785 Y137.014 E2.6095
G1 X105.922 Y136.685 E2.6226
G1 X107.346 Y135.266 E2.6963
G1 X107.676 Y135.130 E2.7094
G1 X119.183 Y135.130 E3.1314
G1 X119.396 Y135.182 E3.1394
G1 X120.464 Y135.744 E3.1837
G1 X120.628 Y135.889 E3.1917
G1 X124.092 Y140.927 E3.4159
G1 X124.152 Y141.050 E3.4209
G1 X124.372 Y141.759 E3.4481
G1 X124.392 Y141.893 E3.4531
G1 X124.392 Y143.698 E3.5193
G1 X124.697 Y143.981 E3.5346
G1 X124.719 Y144.003 E3.5357
G1 X124.832 Y144.123 E3.5417
G1 X124.852 Y144.145 E3.5428
G1 X127.206 Y147.012 E3.6788
G1 X127.231 Y147.044 E3.6804
G1 X127.356 Y147.229 E3.6885
G1 X127.378 Y147.264 E3.6900
G1 X129.226 Y150.602 E3.8300
G1 X129.268 Y150.708 E3.8341
G1 X129.424 Y151.311 E3.8570
G1 X129.438 Y151.424 E3.8612
G1 X129.432 Y168.045 E4.4706
G1 X129.394 Y168.228 E4.4775
G1 X128.982 Y169.166 E4.5151
G1 X128.873 Y169.318 E4.5219
G1 X126.555 Y171.452 E4.6374
G1 X124.392 Y173.611 E4.7495
G1 X124.392 Y178.764 E4.9385
G1 X124.371 Y178.898 E4.9434
G1 X124.151 Y179.607 E4.9707
G1 X124.092 Y179.729 E4.9757
G1 X120.627 Y184.768 E5.1999
G1 X120.463 Y184.913 E5.2079
G1 X119.395 Y185.475 E5.2521
G1 X119.183 Y185.527 E5.2602
G1 X108.104 Y185.527 E5.6664
G1 X108.313 Y185.607 E5.6747
G1 X108.392 Y185.646 E5.6779
G1 X108.800 Y185.899 E5.6955
G1 X108.870 Y185.953 E5.6987
G1 X110.484 Y187.463 E5.7798
G1 X110.543 Y187.530 E5.7831
G1 X110.827 Y187.928 E5.8010
G1 X110.871 Y188.006 E5.8043
G1 X111.774 Y190.022 E5.8853
G1 X111.802 Y190.105 E5.8885
G1 X111.909 Y190.571 E5.9060
G1 X111.920 Y190.658 E5.9092
G1 X111.990 Y192.863 E5.9902
G1 X111.984 Y192.952 E5.9934
G1 X111.904 Y193.431 E6.0112
G1 X111.881 Y193.516 E6.0145
G1 X111.139 Y195.470 E6.0911
G1 X111.121 Y195.512 E6.0928
G1 X111.011 Y195.730 E6.1017
G1 X110.989 Y195.770 E6.1034
G1 X108.781 Y199.272 E6.2552
G1 X108.779 Y199.274 E6.2553
G1 X108.773 Y199.285 E6.2558
G1 X108.771 Y199.287 E6.2559
G1 X105.982 Y203.610 E6.4445
G1 X103.924 Y207.166 E6.5952
G1 X103.822 Y207.760 E6.6173
G1 X106.202 Y207.760 E6.7045
G1 X113.334 Y206.256 E6.9718
G1 X118.579 Y204.966 E7.1699
G1 X118.670 Y204.953 E7.1732
G1 X119.167 Y204.934 E7.1915
G1 X119.258 Y204.940 E7.1948
G1 X121.442 Y205.301 E7.2760
G1 X121.526 Y205.323 E7.2792
G1 X121.974 Y205.491 E7.2967
G1 X122.053 Y205.530 E7.2999
G1 X123.931 Y206.689 E7.3809
G1 X124.001 Y206.743 E7.3841
G1 X124.356 Y207.073 E7.4019
G1 X124.415 Y207.140 E7.4052
G1 X125.702 Y208.933 E7.4861
G1 X125.746 Y209.008 E7.4893
G1 X125.945 Y209.443 E7.5068
G1 X125.974 Y209.526 E7.5100
G1 X126.485 Y211.675 E7.5910
G1 X126.497 Y211.763 E7.5943
G1 X126.514 Y212.252 E7.6122
G1 X126.509 Y212.341 E7.6155
G1 X126.148 Y214.522 E7.6966
G1 X126.125 Y214.607 E7.6998
G1 X125.956 Y215.057 E7.7174
G1 X125.917 Y215.136 E7.7206
G1 X124.758 Y217.005 E7.8013
G1 X124.705 Y217.075 E7.8045
G1 X124.379 Y217.425 E7.8221
G1 X124.313 Y217.483 E7.8253
G1 X122.523 Y218.777 E7.9063
G1 X122.446 Y218.822 E7.9095
G1 X122.008 Y219.023 E7.9272
G1 X121.925 Y219.052 E7.9304
G1 X119.971 Y219.517 E8.0041
G1 X119.955 Y219.520 E8.0047
G1 X119.872 Y219.537 E8.0078
G1 X119.856 Y219.540 E8.0084
G1 X114.298 Y220.462 E8.2150
G1 X107.326 Y221.956 E8.4765
G1 X107.290 Y221.962 E8.4778
G1 X107.096 Y221.987 E8.4850
G1 X107.060 Y221.991 E8.4863
G1 X100.152 Y222.343 E8.7399
G1 X100.115 Y222.344 E8.7413
G1 X99.910 Y222.337 E8.7488
G1 X99.873 Y222.334 E8.7502
G1 X93.930 Y221.642 E8.9696
G1 X93.840 Y221.622 E8.9729
G1 X93.361 Y221.463 E8.9915
G1 X93.276 Y221.425 E8.9949
G1 X88.790 Y218.814 E9.1852
G1 X88.656 Y218.695 E9.1918
G1 X88.063 Y217.908 E9.2279
G1 X87.985 Y217.746 E9.2345
G1 X86.585 Y212.229 E9.4432
G1 X86.572 Y212.132 E9.4468
G1 X86.555 Y211.599 E9.4663
G1 X86.563 Y211.502 E9.4699
G1 X87.150 Y208.367 E9.5869
G1 X87.129 Y208.417 E9.5889
G1 X86.466 Y209.566 E9.6375
G1 X86.441 Y209.605 E9.6393
G1 X86.290 Y209.813 E9.6487
G1 X86.260 Y209.850 E9.6504
G1 X83.854 Y212.522 E9.7823
G1 X83.864 Y217.455 E9.9632
G1 X83.844 Y217.590 E9.9682
G1 X83.623 Y218.302 E9.9955
G1 X83.564 Y218.425 E10.0005
G1 X80.097 Y223.464 E10.2248
G1 X79.934 Y223.609 E10.2328
G1 X78.866 Y224.171 E10.2771
G1 X78.653 Y224.224 E10.2851
G1 X56.543 Y224.224 E11.0959
G1 X56.339 Y224.176 E11.1035
G1 X55.308 Y223.661 E11.1458
G1 X55.148 Y223.527 E11.1534
G1 X51.376 Y218.514 E11.3835
G1 X51.309 Y218.385 E11.3888
G1 X51.056 Y217.630 E11.4180
G1 X51.033 Y217.487 E11.4233
G1 X51.033 Y212.567 E11.6037
G1 X51.033 Y212.558 E11.6041
G1 X51.034 Y212.506 E11.6060
G1 X51.034 Y212.497 E11.6063
G1 X51.451 Y202.544 E11.9716
G1 X51.516 Y202.328 E11.9799
G1 X52.156 Y201.261 E12.0255
G1 X52.316 Y201.103 E12.0338
G1 X78.810 Y185.527 E13.1607
G1 X61.288 Y185.527 E13.8032
G1 X61.076 Y185.475 E13.8113
G1 X60.008 Y184.913 E13.8555
G1 X59.844 Y184.768 E13.8636
G1 X56.379 Y179.730 E14.0878
G1 X56.320 Y179.607 E14.0927
G1 X56.100 Y178.898 E14.1200
G1 X56.079 Y178.764 E14.1250
G1 X56.079 Y173.611 E14.3139
G1 X53.916 Y171.452 E14.4260
G1 X51.598 Y169.318 E14.5415
G1 X51.489 Y169.166 E14.5484
G1 X51.077 Y168.228 E14.5859
G1 X51.039 Y168.045 E14.5928
G1 X51.033 Y151.424 E15.2023
G1 X51.047 Y151.311 E15.2064
G1 X51.203 Y150.708 E15.2293
G1 X51.245 Y150.602 E15.2335
G1 X53.093 Y147.264 E15.3734
G1 X53.115 Y147.229 E15.3749
G1 X53.240 Y147.044 E15.3831
G1 X53.265 Y147.012 E15.3846
G1 X55.619 Y144.145 E15.5206
G1 X55.639 Y144.123 E15.5217
G1 X55.752 Y144.003 E15.5277
G1 X55.774 Y143.981 E15.5289
G1 X56.079 Y143.698 E15.5441
G1 X56.079 Y141.893 E15.6103
G1 X56.099 Y141.759 E15.6153
G1 X56.319 Y141.050 E15.6425
G1 X56.379 Y140.927 E15.6475
G1 X59.843 Y135.889 E15.8717
G1 X60.007 Y135.744 E15.8797
G1 X61.075 Y135.182 E15.9240
G1 X61.288 Y135.130 E15.9320
G92 E0
G1 E-2.5000 F1800
G1 X90.235 Y170.432 F4800
G1 E0.0000 F1800
G92 E0
G1 X88.270 Y179.229 E0.3306 F1800
G1 X88.247 Y179.302 E0.3334
G1 X88.087 Y179.690 E0.3487
G1 X88.052 Y179.758 E0.3516
G1 X84.943 Y184.704 E0.5658
G1 X84.911 Y184.734 E0.5674
G1 X85.470 Y184.734 E0.5878
G1 X85.801 Y184.871 E0.6010
G1 X87.225 Y186.296 E0.6749
G1 X87.362 Y186.627 E0.6880
G1 X87.357 Y207.265 E1.4448
G1 X87.493 Y206.540 E1.4718
G1 X87.505 Y206.491 E1.4736
G1 X87.584 Y206.232 E1.4836
G1 X87.601 Y206.185 E1.4854
G1 X90.129 Y200.312 E1.7199
G1 X90.148 Y200.272 E1.7215
G1 X90.265 Y200.061 E1.7304
G1 X90.289 Y200.023 E1.7320
G1 X98.639 Y187.918 E2.2712
G1 X98.659 Y187.891 E2.2725
G1 X98.776 Y187.746 E2.2793
G1 X98.799 Y187.720 E2.2806
G1 X100.210 Y186.223 E2.3560
G1 X100.276 Y186.166 E2.3592
G1 X100.666 Y185.887 E2.3768
G1 X100.743 Y185.843 E2.3800
G1 X101.441 Y185.527 E2.4081
G1 X97.018 Y185.527 E2.5704
G1 X96.797 Y185.470 E2.5787
G1 X95.694 Y184.861 E2.6249
G1 X95.528 Y184.704 E2.6333
G1 X92.419 Y179.758 E2.8475
G1 X92.384 Y179.690 E2.8503
G1 X92.224 Y179.302 E2.8657
G1 X92.201 Y179.229 E2.8685
G1 X90.236 Y170.432 E3.1991
G92 E0
G1 E-2.5000 F1800
G1 X133.408 Y186.620 F4800
G1 E0.0000 F1800
G92 E0
G1 X133.545 Y186.290 E0.0131 F1800
G1 X134.969 Y184.865 E0.0870
G1 X135.300 Y184.728 E0.1001
G1 X142.915 Y184.728 E0.3794
G1 X143.246 Y184.865 E0.3925
G1 X144.671 Y186.290 E0.4664
G1 X144.808 Y186.620 E0.4795
G1 X144.808 Y194.222 E0.7583
G1 X144.671 Y194.553 E0.7714
G1 X143.246 Y195.978 E0.8453
G1 X142.915 Y196.115 E0.8584
G1 X135.300 Y196.115 E1.1377
G1 X134.969 Y195.978 E1.1508
G1 X133.545 Y194.553 E1.2247
G1 X133.408 Y194.222 E1.2378
G1 X133.408 Y186.620 E1.5166
G1 X128.231 Y201.771 F4800
G92 E0
G1 X149.985 Y201.771 E0.7977 F1800
G1 X150.149 Y201.802 E0.8038
G1 X151.006 Y202.136 E0.8376
G1 X151.149 Y202.225 E0.8437
G1 X152.046 Y203.049 E0.8884
G1 X152.172 Y203.246 E0.8970
G1 X152.566 Y204.476 E0.9443
G1 X152.578 Y204.709 E0.9529
G1 X152.344 Y205.830 E0.9949
G1 X152.306 Y205.938 E0.9991
G1 X152.027 Y206.501 E1.0221
G1 X151.963 Y206.596 E1.0263
G1 X146.477 Y212.896 E1.3327
G1 X146.314 Y213.015 E1.3400
G1 X145.298 Y213.455 E1.3807
G1 X145.100 Y213.492 E1.3880
G1 X143.767 Y213.443 E1.4370
G1 X143.715 Y213.426 E1.4390
G1 X134.493 Y213.426 E1.7771
G1 X134.440 Y213.443 E1.7792
G1 X133.117 Y213.492 E1.8277
G1 X132.919 Y213.455 E1.8351
G1 X131.902 Y213.015 E1.8757
G1 X131.740 Y212.896 E1.8831
G1 X126.257 Y206.599 E2.1893
G1 X126.194 Y206.505 E2.1934
G1 X125.916 Y205.952 E2.2161
G1 X125.878 Y205.845 E2.2203
G1 X125.636 Y204.726 E2.2623
G1 X125.647 Y204.491 E2.2709
G1 X126.040 Y203.251 E2.3186
G1 X126.166 Y203.052 E2.3272
G1 X127.066 Y202.225 E2.3721
G1 X127.209 Y202.136 E2.3782
G1 X128.066 Y201.802 E2.4120
G1 X128.231 Y201.771 E2.4181
G1 X152.266 Y194.836 F4800
G92 E0
G1 X151.734 Y192.697 E0.0808 F1800
G1 X151.721 Y192.608 E0.0841
G1 X151.700 Y192.120 E0.1021
G1 X151.705 Y192.030 E0.1053
G1 X152.044 Y189.848 E0.1863
G1 X152.066 Y189.763 E0.1895
G1 X152.230 Y189.312 E0.2071
G1 X152.268 Y189.233 E0.2103
G1 X153.412 Y187.345 E0.2913
G1 X153.465 Y187.274 E0.2945
G1 X153.794 Y186.916 E0.3124
G1 X153.861 Y186.856 E0.3157
G1 X155.648 Y185.553 E0.3968
G1 X155.723 Y185.509 E0.4000
G1 X156.157 Y185.307 E0.4175
G1 X156.240 Y185.278 E0.4207
G1 X158.376 Y184.754 E0.5014
G1 X158.463 Y184.741 E0.5046
G1 X158.943 Y184.719 E0.5222
G1 X159.031 Y184.724 E0.5255
G1 X161.026 Y185.027 E0.5994
G1 X161.044 Y185.030 E0.6001
G1 X161.145 Y185.050 E0.6039
G1 X161.164 Y185.054 E0.6046
G1 X186.697 Y191.158 E1.5673
G1 X186.739 Y191.170 E1.5689
G1 X186.964 Y191.248 E1.5776
G1 X187.004 Y191.264 E1.5792
G1 X188.899 Y192.130 E1.6556
G1 X188.975 Y192.174 E1.6588
G1 X189.363 Y192.453 E1.6763
G1 X189.429 Y192.511 E1.6795
G1 X190.938 Y194.121 E1.7605
G1 X190.992 Y194.192 E1.7637
G1 X191.248 Y194.604 E1.7815
G1 X191.287 Y194.683 E1.7848
G1 X192.061 Y196.750 E1.8657
G1 X192.083 Y196.835 E1.8689
G1 X192.161 Y197.307 E1.8864
G1 X192.167 Y197.394 E1.8896
G1 X192.099 Y199.602 E1.9706
G1 X192.087 Y199.690 E1.9739
G1 X191.976 Y200.166 E1.9918
G1 X191.947 Y200.251 E1.9951
G1 X191.028 Y202.261 E2.0762
G1 X190.984 Y202.337 E2.0794
