; G-Code generated by Simplify3D(R) Version 3.1.0
; Nov 19, 2016 at 8:25:29 AM
; Settings Summary
;   processName,Process2
;   applyToModels,2xEyeBallFullV2
;   profileName,LulzBot TAZ 5 (modified)
;   profileVersion,2015-05-01 08:00:00
;   baseProfile,
;   printMaterial,hatchbox pla
;   printQuality,Medium
;   printExtruders,
;   extruderName,Primary Extruder
;   extruderToolheadNumber,0
;   extruderDiameter,0.5
;   extruderAutoWidth,1
;   extruderWidth,0.6
;   extrusionMultiplier,1
;   extruderUseRetract,1
;   extruderRetractionDistance,2.5
;   extruderExtraRestartDistance,0
;   extruderRetractionZLift,0
;   extruderRetractionSpeed,1800
;   extruderUseCoasting,0
;   extruderCoastingDistance,0.2
;   extruderUseWipe,0
;   extruderWipeDistance,5
;   primaryExtruder,0
;   layerHeight,0.2
;   topSolidLayers,6
;   bottomSolidLayers,3
;   perimeterOutlines,2
;   printPerimetersInsideOut,1
;   startPointOption,2
;   startPointOriginX,0
;   startPointOriginY,0
;   startPointOriginZ,300
;   sequentialIslands,0
;   spiralVaseMode,0
;   firstLayerHeightPercentage,120
;   firstLayerWidthPercentage,180
;   firstLayerUnderspeed,0.5
;   useRaft,0
;   raftExtruder,0
;   raftLayers,3
;   raftOffset,3
;   raftSeparationDistance,0.14
;   raftInfill,85
;   disableRaftBaseLayers,0
;   useSkirt,1
;   skirtExtruder,0
;   skirtLayers,1
;   skirtOutlines,2
;   skirtOffset,2
;   usePrimePillar,0
;   primePillarExtruder,999
;   primePillarWidth,12
;   primePillarLocation,7
;   primePillarSpeedMultiplier,1
;   useOozeShield,0
;   oozeShieldExtruder,999
;   oozeShieldOffset,2
;   oozeShieldOutlines,1
;   oozeShieldSidewallShape,1
;   oozeShieldSidewallAngle,30
;   oozeShieldSpeedMultiplier,1
;   infillExtruder,0
;   internalInfillPattern,Rectilinear
;   externalInfillPattern,Rectilinear
;   infillPercentage,30
;   outlineOverlapPercentage,30
;   infillExtrusionWidthPercentage,200
;   minInfillLength,5
;   infillLayerInterval,1
;   infillAngles,45,-45
;   overlapInfillAngles,0
;   generateSupport,0
;   supportExtruder,0
;   supportInfillPercentage,30
;   supportExtraInflation,1
;   denseSupportLayers,0
;   denseSupportInfillPercentage,70
;   supportLayerInterval,1
;   supportHorizontalPartOffset,0.3
;   supportUpperSeparationLayers,1
;   supportLowerSeparationLayers,2
;   supportType,0
;   supportGridSpacing,4
;   maxOverhangAngle,45
;   supportAngles,0
;   temperatureName,Primary Extruder,Heated Bed
;   temperatureNumber,0,1
;   temperatureSetpointCount,1,1
;   temperatureSetpointLayers,1,1
;   temperatureSetpointTemperatures,210,70
;   temperatureStabilizeAtStartup,1,1
;   temperatureHeatedBed,0,1
;   temperatureRelayBetweenLayers,0,0
;   temperatureRelayBetweenLoops,0,0
;   fanLayers,1,2
;   fanSpeeds,0,100
;   blipFanToFullPower,1
;   adjustSpeedForCooling,1
;   minSpeedLayerTime,15
;   minCoolingSpeedSlowdown,20
;   increaseFanForCooling,0
;   minFanLayerTime,45
;   maxCoolingFanSpeed,100
;   increaseFanForBridging,0
;   bridgingFanSpeed,100
;   use5D,1
;   relativeEdistances,0
;   allowEaxisZeroing,1
;   independentExtruderAxes,0
;   includeM10123,0
;   stickySupport,1
;   applyToolheadOffsets,0
;   gcodeXoffset,0
;   gcodeYoffset,0
;   gcodeZoffset,0
;   overrideMachineDefinition,1
;   machineTypeOverride,0
;   strokeXoverride,298
;   strokeYoverride,275
;   strokeZoverride,250
;   originOffsetXoverride,0
;   originOffsetYoverride,0
;   originOffsetZoverride,0
;   homeXdirOverride,-1
;   homeYdirOverride,-1
;   homeZdirOverride,-1
;   flipXoverride,1
;   flipYoverride,-1
;   flipZoverride,1
;   toolheadOffsets,0,0|0,0|0,0|0,0|0,0|0,0
;   overrideFirmwareConfiguration,1
;   firmwareTypeOverride,RepRap (Marlin/Repetier/Sprinter)
;   GPXconfigOverride,r2
;   baudRateOverride,115200
;   overridePrinterModels,1
;   printerModelsOverride,LulzBot_TAZ3.stl
;   startingGcode,G28 ; home all axes
;   layerChangeGcode,
;   retractionGcode,
;   toolChangeGcode,
;   endingGcode,M104 S0 ; turn off extruder,M140 S0 ; turn off bed,G28 X0 ; home X axis,M84 ; disable motors
;   exportFileFormat,gcode
;   celebration,0
;   celebrationSong,Random Song
;   postProcessing,
;   defaultSpeed,3600
;   outlineUnderspeed,0.5
;   solidInfillUnderspeed,0.8
;   supportUnderspeed,0.8
;   rapidXYspeed,4800
;   rapidZspeed,1000
;   minBridgingArea,50
;   bridgingExtraInflation,0
;   bridgingExtrusionMultiplier,1
;   bridgingSpeedMultiplier,1
;   filamentDiameter,3
;   filamentPricePerKg,46
;   filamentDensity,1.25
;   useMinPrintHeight,0
;   minPrintHeight,0
;   useMaxPrintHeight,0
;   maxPrintHeight,0
;   useDiaphragm,0
;   diaphragmLayerInterval,20
;   robustSlicing,1
;   mergeAllIntoSolid,0
;   onlyRetractWhenCrossingOutline,1
;   retractBetweenLayers,1
;   useRetractionMinTravel,0
;   retractionMinTravel,3
;   retractWhileWiping,0
;   onlyWipeOutlines,1
;   avoidCrossingOutline,0
;   maxMovementDetourFactor,3
;   toolChangeRetractionDistance,12
;   toolChangeExtraRestartDistance,-0.5
;   toolChangeRetractionSpeed,600
;   allowThinWallGapFill,1
;   thinWallAllowedOverlapPercentage,10
;   horizontalSizeCompensation,0
G90
M82
M106 S0
M140 S70
M190 S70
M104 S210 T0
M109 S210 T0
G28 ; home all axes
G92 E0
G1 E-2.5000 F1800
G1 Z0.240 F1000
; layer 1, Z = 0.24
T0
; tool H0.240 W1.080
; skirt
G1 X57.134 Y57.132 F4800
G1 E0.0000 F540
G92 E0
G1 X57.149 Y57.115 E0.0008 F1800
G1 X57.234 Y57.030 E0.0052
G1 X57.250 Y57.015 E0.0060
G1 X58.666 Y55.719 E0.0764
G1 X58.682 Y55.705 E0.0772
G1 X58.775 Y55.628 E0.0816
G1 X58.792 Y55.615 E0.0824
G1 X60.328 Y54.464 E0.1528
G1 X60.346 Y54.452 E0.1536
G1 X60.446 Y54.384 E0.1580
G1 X60.465 Y54.372 E0.1588
G1 X62.106 Y53.378 E0.2292
G1 X62.125 Y53.367 E0.2300
G1 X62.231 Y53.310 E0.2344
G1 X62.251 Y53.300 E0.2352
G1 X63.982 Y52.472 E0.3056
G1 X64.002 Y52.463 E0.3064
G1 X64.113 Y52.416 E0.3108
G1 X64.133 Y52.408 E0.3116
G1 X65.937 Y51.753 E0.3820
G1 X65.958 Y51.746 E0.3828
G1 X66.073 Y51.711 E0.3872
G1 X66.094 Y51.705 E0.3880
G1 X67.954 Y51.230 E0.4584
G1 X67.975 Y51.225 E0.4592
G1 X68.093 Y51.201 E0.4636
G1 X68.115 Y51.197 E0.4644
G1 X70.012 Y50.907 E0.5348
G1 X70.034 Y50.904 E0.5356
G1 X70.153 Y50.892 E0.5400
G1 X70.175 Y50.890 E0.5408
G1 X72.092 Y50.787 E0.6112
G1 X72.114 Y50.786 E0.6120
G1 X72.234 Y50.786 E0.6164
G1 X72.256 Y50.786 E0.6172
G1 X74.173 Y50.872 E0.6876
G1 X74.195 Y50.873 E0.6884
G1 X74.315 Y50.884 E0.6928
G1 X74.337 Y50.887 E0.6936
G1 X76.236 Y51.160 E0.7640
G1 X76.258 Y51.163 E0.7648
G1 X76.376 Y51.186 E0.7692
G1 X76.398 Y51.191 E0.7700
G1 X78.261 Y51.649 E0.8404
G1 X78.283 Y51.655 E0.8412
G1 X78.398 Y51.689 E0.8456
G1 X78.419 Y51.696 E0.8464
G1 X80.229 Y52.334 E0.9168
G1 X80.249 Y52.342 E0.9176
G1 X80.361 Y52.387 E0.9220
G1 X80.381 Y52.396 E0.9228
G1 X82.120 Y53.209 E0.9932
G1 X82.139 Y53.219 E0.9940
G1 X82.246 Y53.275 E0.9984
G1 X82.265 Y53.286 E0.9992
G1 X83.915 Y54.265 E1.0696
G1 X83.934 Y54.276 E1.0704
G1 X84.034 Y54.343 E1.0748
G1 X84.053 Y54.355 E1.0756
G1 X85.599 Y55.491 E1.1460
G1 X85.617 Y55.505 E1.1468
G1 X85.710 Y55.581 E1.1512
G1 X85.727 Y55.595 E1.1520
G1 X87.154 Y56.877 E1.2224
G1 X87.171 Y56.893 E1.2232
G1 X87.256 Y56.977 E1.2276
G1 X87.271 Y56.993 E1.2284
G1 X88.567 Y58.409 E1.2988
G1 X88.581 Y58.426 E1.2996
G1 X88.658 Y58.518 E1.3040
G1 X88.672 Y58.536 E1.3048
G1 X89.822 Y60.072 E1.3752
G1 X89.835 Y60.090 E1.3760
G1 X89.902 Y60.190 E1.3804
G1 X89.914 Y60.208 E1.3812
G1 X90.908 Y61.850 E1.4516
G1 X90.919 Y61.869 E1.4524
G1 X90.976 Y61.975 E1.4568
G1 X90.986 Y61.994 E1.4576
G1 X91.814 Y63.725 E1.5280
G1 X91.823 Y63.745 E1.5288
G1 X91.870 Y63.856 E1.5332
G1 X91.878 Y63.877 E1.5340
G1 X92.533 Y65.681 E1.6044
G1 X92.540 Y65.702 E1.6052
G1 X92.575 Y65.817 E1.6096
G1 X92.581 Y65.838 E1.6104
G1 X92.895 Y67.066 E1.6569
G1 X92.896 Y67.064 E1.6570
G1 X92.938 Y67.003 E1.6597
G1 X92.946 Y66.992 E1.6602
G1 X93.440 Y66.312 E1.6910
G1 X93.448 Y66.301 E1.6915
G1 X93.493 Y66.243 E1.6942
G1 X93.502 Y66.232 E1.6947
G1 X94.036 Y65.584 E1.7255
G1 X94.045 Y65.573 E1.7260
G1 X94.094 Y65.518 E1.7287
G1 X94.103 Y65.508 E1.7292
G1 X94.675 Y64.893 E1.7600
G1 X94.685 Y64.883 E1.7605
G1 X94.737 Y64.830 E1.7632
G1 X94.746 Y64.821 E1.7637
G1 X95.355 Y64.241 E1.7946
G1 X95.365 Y64.232 E1.7951
G1 X95.420 Y64.183 E1.7978
G1 X95.431 Y64.174 E1.7983
G1 X96.073 Y63.632 E1.8291
G1 X96.084 Y63.624 E1.8296
G1 X96.142 Y63.578 E1.8323
G1 X96.152 Y63.569 E1.8328
G1 X96.826 Y63.068 E1.8636
G1 X96.837 Y63.060 E1.8641
G1 X96.898 Y63.017 E1.8668
G1 X96.909 Y63.010 E1.8673
G1 X97.612 Y62.550 E1.8981
G1 X97.624 Y62.542 E1.8986
G1 X97.687 Y62.504 E1.9013
G1 X97.699 Y62.497 E1.9018
G1 X98.428 Y62.080 E1.9327
G1 X98.440 Y62.073 E1.9332
G1 X98.506 Y62.039 E1.9359
G1 X98.518 Y62.032 E1.9364
G1 X99.271 Y61.660 E1.9672
G1 X99.283 Y61.655 E1.9677
G1 X99.350 Y61.624 E1.9704
G1 X99.363 Y61.618 E1.9709
G1 X100.137 Y61.293 E2.0017
G1 X100.150 Y61.287 E2.0022
G1 X100.219 Y61.261 E2.0049
G1 X100.232 Y61.256 E2.0054
G1 X101.025 Y60.978 E2.0362
G1 X101.038 Y60.973 E2.0367
G1 X101.108 Y60.951 E2.0394
G1 X101.121 Y60.947 E2.0399
G1 X101.929 Y60.717 E2.0707
G1 X101.942 Y60.713 E2.0712
G1 X102.014 Y60.695 E2.0740
G1 X102.027 Y60.692 E2.0745
G1 X102.848 Y60.511 E2.1053
G1 X102.861 Y60.508 E2.1058
G1 X102.934 Y60.495 E2.1085
G1 X102.947 Y60.492 E2.1090
G1 X103.777 Y60.361 E2.1398
G1 X103.791 Y60.359 E2.1403
G1 X103.864 Y60.350 E2.1430
G1 X103.878 Y60.349 E2.1435
G1 X104.714 Y60.268 E2.1743
G1 X104.727 Y60.267 E2.1748
G1 X104.801 Y60.262 E2.1775
G1 X104.815 Y60.261 E2.1780
G1 X105.655 Y60.231 E2.2088
G1 X105.668 Y60.231 E2.2093
G1 X105.742 Y60.230 E2.2120
G1 X105.756 Y60.231 E2.2125
G1 X106.596 Y60.251 E2.2434
G1 X106.610 Y60.252 E2.2439
G1 X106.683 Y60.256 E2.2466
G1 X106.697 Y60.257 E2.2471
G1 X107.534 Y60.328 E2.2779
G1 X107.548 Y60.330 E2.2784
G1 X107.621 Y60.338 E2.2811
G1 X107.635 Y60.340 E2.2816
G1 X108.466 Y60.462 E2.3124
G1 X108.479 Y60.464 E2.3129
G1 X108.552 Y60.477 E2.3156
G1 X108.566 Y60.479 E2.3161
G1 X109.388 Y60.651 E2.3469
G1 X109.401 Y60.654 E2.3474
G1 X109.473 Y60.671 E2.3501
G1 X109.486 Y60.675 E2.3506
G1 X110.297 Y60.896 E2.3814
G1 X110.310 Y60.900 E2.3819
G1 X110.381 Y60.921 E2.3846
G1 X110.394 Y60.925 E2.3851
G1 X111.190 Y61.195 E2.4160
G1 X111.202 Y61.200 E2.4165
G1 X111.272 Y61.226 E2.4192
G1 X111.285 Y61.230 E2.4197
G1 X112.063 Y61.548 E2.4505
G1 X112.075 Y61.553 E2.4510
G1 X112.143 Y61.583 E2.4537
G1 X112.155 Y61.589 E2.4542
G1 X112.913 Y61.952 E2.4850
G1 X112.925 Y61.958 E2.4855
G1 X112.990 Y61.992 E2.4882
G1 X113.002 Y61.999 E2.4887
G1 X113.736 Y62.407 E2.5195
G1 X113.748 Y62.414 E2.5200
G1 X113.812 Y62.452 E2.5227
G1 X113.823 Y62.459 E2.5232
G1 X114.532 Y62.912 E2.5540
G1 X114.543 Y62.919 E2.5545
G1 X114.604 Y62.961 E2.5573
G1 X114.615 Y62.969 E2.5578
G1 X115.295 Y63.463 E2.5886
G1 X115.305 Y63.471 E2.5891
G1 X115.364 Y63.516 E2.5918
G1 X115.375 Y63.525 E2.5923
G1 X116.023 Y64.059 E2.6231
G1 X116.033 Y64.068 E2.6236
G1 X116.089 Y64.117 E2.6263
G1 X116.099 Y64.126 E2.6268
G1 X116.714 Y64.698 E2.6576
G1 X116.724 Y64.708 E2.6581
G1 X116.777 Y64.760 E2.6608
G1 X116.786 Y64.770 E2.6613
G1 X117.366 Y65.378 E2.6921
G1 X117.375 Y65.388 E2.6926
G1 X117.424 Y65.443 E2.6953
G1 X117.433 Y65.453 E2.6958
G1 X117.974 Y66.096 E2.7266
G1 X117.983 Y66.106 E2.7271
G1 X118.029 Y66.164 E2.7299
G1 X118.037 Y66.175 E2.7304
G1 X118.539 Y66.849 E2.7612
G1 X118.547 Y66.860 E2.7617
G1 X118.590 Y66.921 E2.7644
G1 X118.597 Y66.932 E2.7649
G1 X119.057 Y67.635 E2.7957
G1 X119.065 Y67.647 E2.7962
G1 X119.103 Y67.710 E2.7989
G1 X119.110 Y67.721 E2.7994
G1 X119.527 Y68.451 E2.8302
G1 X119.534 Y68.463 E2.8307
G1 X119.568 Y68.529 E2.8334
G1 X119.575 Y68.541 E2.8339
G1 X119.947 Y69.294 E2.8648
G1 X119.952 Y69.306 E2.8652
G1 X119.983 Y69.373 E2.8680
G1 X119.989 Y69.386 E2.8685
G1 X120.314 Y70.160 E2.8993
G1 X120.320 Y70.173 E2.8998
G1 X120.346 Y70.242 E2.9025
G1 X120.351 Y70.255 E2.9030
G1 X120.585 Y70.922 E2.9289
G1 X120.928 Y70.340 E2.9537
G1 X120.939 Y70.322 E2.9544
G1 X121.000 Y70.229 E2.9585
G1 X121.011 Y70.213 E2.9593
G1 X121.452 Y69.599 E2.9869
G1 X121.464 Y69.583 E2.9877
G1 X121.533 Y69.496 E2.9918
G1 X121.546 Y69.480 E2.9925
G1 X122.462 Y68.423 E3.0438
G1 X122.476 Y68.408 E3.0446
G1 X122.552 Y68.328 E3.0486
G1 X122.567 Y68.313 E3.0494
G1 X123.111 Y67.789 E3.0771
G1 X123.126 Y67.776 E3.0778
G1 X123.209 Y67.702 E3.0819
G1 X123.225 Y67.689 E3.0826
G1 X124.331 Y66.803 E3.1346
G1 X124.352 Y66.786 E3.1356
G1 X124.473 Y66.701 E3.1410
G1 X124.496 Y66.686 E3.1420
G1 X125.701 Y65.939 E3.1940
G1 X125.718 Y65.929 E3.1947
G1 X125.815 Y65.875 E3.1988
G1 X125.833 Y65.865 E3.1996
G1 X126.508 Y65.527 E3.2272
G1 X126.527 Y65.519 E3.2280
G1 X126.628 Y65.473 E3.2321
G1 X126.647 Y65.465 E3.2328
G1 X127.950 Y64.955 E3.2841
G1 X127.969 Y64.948 E3.2849
G1 X128.074 Y64.912 E3.2889
G1 X128.093 Y64.906 E3.2897
G1 X128.810 Y64.698 E3.3171
G1 X128.827 Y64.693 E3.3177
G1 X128.918 Y64.670 E3.3211
G1 X128.935 Y64.667 E3.3218
G1 X130.335 Y64.374 E3.3742
G1 X130.366 Y64.368 E3.3754
G1 X130.535 Y64.345 E3.3816
G1 X130.566 Y64.342 E3.3828
G1 X131.987 Y64.247 E3.4350
G1 X132.010 Y64.246 E3.4359
G1 X132.139 Y64.244 E3.4406
G1 X132.163 Y64.244 E3.4414
G1 X132.921 Y64.274 E3.4693
G1 X132.937 Y64.274 E3.4699
G1 X133.025 Y64.281 E3.4731
G1 X133.041 Y64.282 E3.4737
G1 X134.420 Y64.434 E3.5245
G1 X134.440 Y64.437 E3.5253
G1 X134.550 Y64.454 E3.5294
G1 X134.570 Y64.458 E3.5301
G1 X135.292 Y64.604 E3.5571
G1 X135.305 Y64.607 E3.5576
G1 X135.377 Y64.624 E3.5603
G1 X135.390 Y64.628 E3.5608
G1 X136.102 Y64.817 E3.5878
G1 X136.122 Y64.823 E3.5886
G1 X136.227 Y64.857 E3.5927
G1 X136.247 Y64.863 E3.5934
G1 X137.577 Y65.351 E3.6454
G1 X137.603 Y65.361 E3.6464
G1 X137.738 Y65.421 E3.6518
G1 X137.763 Y65.432 E3.6528
G1 X139.041 Y66.085 E3.7055
G1 X139.065 Y66.098 E3.7065
G1 X139.193 Y66.174 E3.7119
G1 X139.216 Y66.188 E3.7129
G1 X140.391 Y66.980 E3.7648
G1 X140.408 Y66.992 E3.7656
G1 X140.497 Y67.058 E3.7697
G1 X140.513 Y67.071 E3.7704
G1 X141.098 Y67.548 E3.7981
G1 X141.114 Y67.561 E3.7989
G1 X141.197 Y67.635 E3.8029
G1 X141.212 Y67.649 E3.8037
G1 X142.211 Y68.627 E3.8550
G1 X142.226 Y68.641 E3.8557
G1 X142.301 Y68.722 E3.8598
G1 X142.315 Y68.738 E3.8605
G1 X142.805 Y69.312 E3.8882
G1 X142.818 Y69.328 E3.8890
G1 X142.886 Y69.416 E3.8930
G1 X142.898 Y69.432 E3.8938
G1 X143.094 Y69.710 E3.9063
G1 X143.116 Y69.653 E3.9085
G1 X143.134 Y69.613 E3.9101
G1 X144.300 Y67.313 E4.0046
G1 X144.322 Y67.275 E4.0063
G1 X144.451 Y67.072 E4.0151
G1 X144.477 Y67.036 E4.0167
G1 X146.069 Y65.008 E4.1113
G1 X146.098 Y64.974 E4.1129
G1 X146.264 Y64.800 E4.1217
G1 X146.296 Y64.770 E4.1233
G1 X148.253 Y63.091 E4.2179
G1 X148.288 Y63.064 E4.2195
G1 X148.486 Y62.926 E4.2283
G1 X148.523 Y62.903 E4.2299
G1 X150.770 Y61.638 E4.3245
G1 X150.809 Y61.618 E4.3261
G1 X151.030 Y61.521 E4.3349
G1 X151.071 Y61.505 E4.3366
G1 X153.522 Y60.703 E4.4311
G1 X153.564 Y60.692 E4.4327
G1 X153.799 Y60.640 E4.4416
G1 X153.843 Y60.632 E4.4432
G1 X156.403 Y60.324 E4.5377
G1 X156.447 Y60.321 E4.5394
G1 X156.687 Y60.315 E4.5482
G1 X156.732 Y60.317 E4.5498
G1 X159.303 Y60.514 E4.6443
G1 X159.346 Y60.519 E4.6460
G1 X159.583 Y60.561 E4.6548
G1 X159.626 Y60.571 E4.6564
G1 X162.110 Y61.265 E4.7510
G1 X162.152 Y61.279 E4.7526
G1 X162.376 Y61.367 E4.7614
G1 X162.416 Y61.385 E4.7630
G1 X164.716 Y62.550 E4.8576
G1 X164.754 Y62.572 E4.8592
G1 X164.957 Y62.702 E4.8680
G1 X164.994 Y62.727 E4.8696
G1 X167.022 Y64.319 E4.9642
G1 X167.055 Y64.348 E4.9658
G1 X167.229 Y64.515 E4.9746
G1 X167.259 Y64.547 E4.9763
G1 X168.938 Y66.504 E5.0708
G1 X168.965 Y66.539 E5.0724
G1 X169.103 Y66.736 E5.0813
G1 X169.127 Y66.773 E5.0829
G1 X170.391 Y69.020 E5.1774
G1 X170.411 Y69.060 E5.1791
G1 X170.508 Y69.280 E5.1879
G1 X170.524 Y69.321 E5.1895
G1 X171.326 Y71.772 E5.2840
G1 X171.338 Y71.815 E5.2857
G1 X171.390 Y72.050 E5.2945
G1 X171.397 Y72.093 E5.2961
G1 X171.706 Y74.653 E5.3907
G1 X171.709 Y74.697 E5.3923
G1 X171.714 Y74.938 E5.4011
G1 X171.713 Y74.982 E5.4027
G1 X171.516 Y77.553 E5.4973
G1 X171.510 Y77.597 E5.4989
G1 X171.468 Y77.834 E5.5077
G1 X171.459 Y77.877 E5.5093
G1 X170.764 Y80.360 E5.6039
G1 X170.750 Y80.402 E5.6055
G1 X170.663 Y80.626 E5.6143
G1 X170.645 Y80.667 E5.6160
