; G-Code generated by Simplify3D(R) Version 3.1.0
; Nov 19, 2016 at 8:22:58 AM
; Settings Summary
;   processName,Process2
;   applyToModels,JawHingeV1,JawHingeV2,JawPistonV1,JawSupportV1
;   profileName,LulzBot TAZ 5 (modified)
;   profileVersion,2015-05-01 08:00:00
;   baseProfile,
;   printMaterial,hatchbox pla
;   printQuality,Medium
;   printExtruders,
;   extruderName,Primary Extruder
;   extruderToolheadNumber,0
;   extruderDiameter,0.5
;   extruderAutoWidth,1
;   extruderWidth,0.6
;   extrusionMultiplier,1
;   extruderUseRetract,1
;   extruderRetractionDistance,2.5
;   extruderExtraRestartDistance,0
;   extruderRetractionZLift,0
;   extruderRetractionSpeed,1800
;   extruderUseCoasting,0
;   extruderCoastingDistance,0.2
;   extruderUseWipe,0
;   extruderWipeDistance,5
;   primaryExtruder,0
;   layerHeight,0.2
;   topSolidLayers,6
;   bottomSolidLayers,3
;   perimeterOutlines,2
;   printPerimetersInsideOut,1
;   startPointOption,2
;   startPointOriginX,0
;   startPointOriginY,0
;   startPointOriginZ,300
;   sequentialIslands,0
;   spiralVaseMode,0
;   firstLayerHeightPercentage,120
;   firstLayerWidthPercentage,180
;   firstLayerUnderspeed,0.5
;   useRaft,0
;   raftExtruder,0
;   raftLayers,3
;   raftOffset,3
;   raftSeparationDistance,0.14
;   raftInfill,85
;   disableRaftBaseLayers,0
;   useSkirt,1
;   skirtExtruder,0
;   skirtLayers,1
;   skirtOutlines,2
;   skirtOffset,2
;   usePrimePillar,0
;   primePillarExtruder,999
;   primePillarWidth,12
;   primePillarLocation,7
;   primePillarSpeedMultiplier,1
;   useOozeShield,0
;   oozeShieldExtruder,999
;   oozeShieldOffset,2
;   oozeShieldOutlines,1
;   oozeShieldSidewallShape,1
;   oozeShieldSidewallAngle,30
;   oozeShieldSpeedMultiplier,1
;   infillExtruder,0
;   internalInfillPattern,Rectilinear
;   externalInfillPattern,Rectilinear
;   infillPercentage,30
;   outlineOverlapPercentage,30
;   infillExtrusionWidthPercentage,200
;   minInfillLength,5
;   infillLayerInterval,1
;   infillAngles,45,-45
;   overlapInfillAngles,0
;   generateSupport,0
;   supportExtruder,0
;   supportInfillPercentage,30
;   supportExtraInflation,1
;   denseSupportLayers,0
;   denseSupportInfillPercentage,70
;   supportLayerInterval,1
;   supportHorizontalPartOffset,0.3
;   supportUpperSeparationLayers,1
;   supportLowerSeparationLayers,2
;   supportType,0
;   supportGridSpacing,4
;   maxOverhangAngle,45
;   supportAngles,0
;   temperatureName,Primary Extruder,Heated Bed
;   temperatureNumber,0,1
;   temperatureSetpointCount,1,1
;   temperatureSetpointLayers,1,1
;   temperatureSetpointTemperatures,210,70
;   temperatureStabilizeAtStartup,1,1
;   temperatureHeatedBed,0,1
;   temperatureRelayBetweenLayers,0,0
;   temperatureRelayBetweenLoops,0,0
;   fanLayers,1,2
;   fanSpeeds,0,100
;   blipFanToFullPower,1
;   adjustSpeedForCooling,1
;   minSpeedLayerTime,15
;   minCoolingSpeedSlowdown,20
;   increaseFanForCooling,0
;   minFanLayerTime,45
;   maxCoolingFanSpeed,100
;   increaseFanForBridging,0
;   bridgingFanSpeed,100
;   use5D,1
;   relativeEdistances,0
;   allowEaxisZeroing,1
;   independentExtruderAxes,0
;   includeM10123,0
;   stickySupport,1
;   applyToolheadOffsets,0
;   gcodeXoffset,0
;   gcodeYoffset,0
;   gcodeZoffset,0
;   overrideMachineDefinition,1
;   machineTypeOverride,0
;   strokeXoverride,298
;   strokeYoverride,275
;   strokeZoverride,250
;   originOffsetXoverride,0
;   originOffsetYoverride,0
;   originOffsetZoverride,0
;   homeXdirOverride,-1
;   homeYdirOverride,-1
;   homeZdirOverride,-1
;   flipXoverride,1
;   flipYoverride,-1
;   flipZoverride,1
;   toolheadOffsets,0,0|0,0|0,0|0,0|0,0|0,0
;   overrideFirmwareConfiguration,1
;   firmwareTypeOverride,RepRap (Marlin/Repetier/Sprinter)
;   GPXconfigOverride,r2
;   baudRateOverride,115200
;   overridePrinterModels,1
;   printerModelsOverride,LulzBot_TAZ3.stl
;   startingGcode,G28 ; home all axes
;   layerChangeGcode,
;   retractionGcode,
;   toolChangeGcode,
;   endingGcode,M104 S0 ; turn off extruder,M140 S0 ; turn off bed,G28 X0 ; home X axis,M84 ; disable motors
;   exportFileFormat,gcode
;   celebration,0
;   celebrationSong,Random Song
;   postProcessing,
;   defaultSpeed,3600
;   outlineUnderspeed,0.5
;   solidInfillUnderspeed,0.8
;   supportUnderspeed,0.8
;   rapidXYspeed,4800
;   rapidZspeed,1000
;   minBridgingArea,50
;   bridgingExtraInflation,0
;   bridgingExtrusionMultiplier,1
;   bridgingSpeedMultiplier,1
;   filamentDiameter,3
;   filamentPricePerKg,46
;   filamentDensity,1.25
;   useMinPrintHeight,0
;   minPrintHeight,0
;   useMaxPrintHeight,0
;   maxPrintHeight,0
;   useDiaphragm,0
;   diaphragmLayerInterval,20
;   robustSlicing,1
;   mergeAllIntoSolid,0
;   onlyRetractWhenCrossingOutline,1
;   retractBetweenLayers,1
;   useRetractionMinTravel,0
;   retractionMinTravel,3
;   retractWhileWiping,0
;   onlyWipeOutlines,1
;   avoidCrossingOutline,0
;   maxMovementDetourFactor,3
;   toolChangeRetractionDistance,12
;   toolChangeExtraRestartDistance,-0.5
;   toolChangeRetractionSpeed,600
;   allowThinWallGapFill,1
;   thinWallAllowedOverlapPercentage,10
;   horizontalSizeCompensation,0
G90
M82
M106 S0
M140 S70
M190 S70
M104 S210 T0
M109 S210 T0
G28 ; home all axes
G92 E0
G1 E-2.5000 F1800
G1 Z0.240 F1000
; layer 1, Z = 0.24
T0
; tool H0.240 W1.080
; skirt
G1 X90.631 Y70.343 F4800
G1 E0.0000 F540
G92 E0
G1 X91.957 Y69.302 E0.0618 F1800
G1 X92.243 Y69.203 E0.0729
G1 X172.363 Y69.203 E3.0108
G1 X172.649 Y69.302 E3.0219
G1 X173.974 Y70.343 E3.0837
G1 X174.138 Y70.597 E3.0948
G1 X174.461 Y71.920 E3.1448
G1 X174.470 Y71.973 E3.1467
G1 X174.506 Y72.265 E3.1575
G1 X174.509 Y72.319 E3.1595
G1 X174.509 Y75.067 E3.2603
G1 X176.840 Y75.067 E3.3458
G1 X177.171 Y75.204 E3.3589
G1 X178.596 Y76.629 E3.4328
G1 X178.733 Y76.960 E3.4459
G1 X178.733 Y83.367 E3.6808
G1 X178.596 Y83.698 E3.6940
G1 X177.171 Y85.122 E3.7679
G1 X176.840 Y85.259 E3.7810
G1 X174.509 Y85.259 E3.8665
G1 X174.509 Y87.511 E3.9491
G1 X174.503 Y87.583 E3.9517
G1 X174.441 Y87.970 E3.9661
G1 X174.424 Y88.040 E3.9687
G1 X174.027 Y89.238 E4.0150
G1 X173.860 Y89.467 E4.0254
G1 X172.581 Y90.391 E4.0832
G1 X172.311 Y90.479 E4.0937
G1 X92.295 Y90.479 E7.0278
G1 X92.025 Y90.391 E7.0382
G1 X90.746 Y89.467 E7.0960
G1 X90.578 Y89.238 E7.1065
G1 X90.182 Y88.040 E7.1527
G1 X90.165 Y87.970 E7.1554
G1 X90.102 Y87.583 E7.1697
G1 X90.097 Y87.511 E7.1724
G1 X90.097 Y85.247 E7.2554
G1 X87.753 Y85.247 E7.3413
G1 X87.423 Y85.110 E7.3545
G1 X85.998 Y83.686 E7.4284
G1 X85.861 Y83.355 E7.4415
G1 X85.861 Y76.948 E7.6764
G1 X85.998 Y76.617 E7.6895
G1 X87.423 Y75.192 E7.7634
G1 X87.753 Y75.055 E7.7766
G1 X90.097 Y75.055 E7.8625
G1 X90.097 Y72.319 E7.9628
G1 X90.100 Y72.265 E7.9648
G1 X90.135 Y71.973 E7.9756
G1 X90.145 Y71.920 E7.9776
G1 X90.468 Y70.597 E8.0275
G1 X90.631 Y70.343 E8.0386
G92 E0
G1 E-2.5000 F1800
G1 X89.960 Y98.506 F4800
G1 E0.0000 F1800
G92 E0
G1 X100.271 Y98.506 E0.3781 F1800
G1 X100.601 Y98.643 E0.3912
G1 X102.026 Y100.068 E0.4651
G1 X102.163 Y100.399 E0.4782
G1 X102.163 Y105.551 E0.6672
G1 X112.868 Y105.551 E1.0597
G1 X112.868 Y100.370 E1.2497
G1 X113.005 Y100.040 E1.2629
G1 X114.430 Y98.615 E1.3367
G1 X114.761 Y98.478 E1.3499
G1 X124.536 Y98.478 E1.7083
G1 X124.867 Y98.615 E1.7215
G1 X126.292 Y100.040 E1.7953
G1 X126.429 Y100.370 E1.8085
G1 X126.429 Y116.564 E2.4023
G1 X126.292 Y116.895 E2.4154
G1 X126.192 Y116.994 E2.4206
G1 X126.407 Y117.083 E2.4291
G1 X126.485 Y117.125 E2.4323
G1 X129.491 Y119.134 E2.5649
G1 X129.560 Y119.190 E2.5682
G1 X129.901 Y119.531 E2.5859
G1 X129.957 Y119.599 E2.5891
G1 X131.965 Y122.606 E2.7217
G1 X132.007 Y122.684 E2.7249
G1 X132.192 Y123.129 E2.7426
G1 X132.217 Y123.214 E2.7459
G1 X132.772 Y126.003 E2.8501
G1 X144.439 Y144.671 E3.6574
G1 X151.599 Y144.671 E3.9199
G1 X151.930 Y144.808 E3.9331
G1 X153.355 Y146.233 E4.0069
G1 X153.492 Y146.563 E4.0201
G1 X153.492 Y162.757 E4.6139
G1 X153.355 Y163.088 E4.6270
G1 X151.930 Y164.512 E4.7009
G1 X151.599 Y164.649 E4.7140
G1 X141.824 Y164.649 E5.0725
G1 X141.493 Y164.512 E5.0856
G1 X140.068 Y163.088 E5.1595
G1 X139.931 Y162.757 E5.1726
G1 X139.931 Y157.576 E5.3626
G1 X129.226 Y157.576 E5.7552
G1 X129.226 Y162.728 E5.9441
G1 X129.089 Y163.059 E5.9572
G1 X127.665 Y164.484 E6.0311
G1 X127.334 Y164.621 E6.0442
G1 X117.023 Y164.621 E6.4224
G1 X116.713 Y164.503 E6.4345
G1 X115.328 Y163.268 E6.5025
G1 X115.175 Y162.974 E6.5147
G1 X111.196 Y128.344 E7.7929
G1 X105.709 Y137.125 E8.1725
G1 X105.154 Y139.913 E8.2768
G1 X105.129 Y139.998 E8.2801
G1 X104.944 Y140.443 E8.2977
G1 X104.902 Y140.521 E8.3010
G1 X102.894 Y143.528 E8.4336
G1 X102.837 Y143.596 E8.4368
G1 X102.496 Y143.937 E8.4545
G1 X102.428 Y143.993 E8.4577
G1 X99.422 Y146.002 E8.5903
G1 X99.344 Y146.044 E8.5936
G1 X98.898 Y146.228 E8.6113
G1 X98.813 Y146.254 E8.6145
G1 X95.267 Y146.959 E8.7471
G1 X95.179 Y146.968 E8.7503
G1 X94.697 Y146.968 E8.7680
G1 X94.609 Y146.959 E8.7713
G1 X91.063 Y146.254 E8.9038
G1 X90.978 Y146.228 E8.9071
G1 X90.532 Y146.044 E8.9248
G1 X90.454 Y146.002 E8.9280
G1 X87.448 Y143.993 E9.0606
G1 X87.380 Y143.937 E9.0638
G1 X87.038 Y143.596 E9.0815
G1 X86.982 Y143.528 E9.0848
G1 X84.974 Y140.521 E9.2174
G1 X84.932 Y140.443 E9.2206
G1 X84.747 Y139.998 E9.2383
G1 X84.722 Y139.913 E9.2415
G1 X84.026 Y136.417 E9.3723
G1 X84.018 Y136.347 E9.3748
G1 X84.002 Y135.966 E9.3888
G1 X84.005 Y135.896 E9.3914
G1 X88.112 Y100.153 E10.7107
G1 X88.265 Y99.859 E10.7228
G1 X89.650 Y98.624 E10.7909
G1 X89.960 Y98.506 E10.8030
G92 E0
G1 E-2.5000 F1800
G1 X136.796 Y109.677 F4800
G1 E0.0000 F1800
G92 E0
G1 X136.809 Y109.631 E0.0017 F1800
G1 X136.889 Y109.387 E0.0112
G1 X136.907 Y109.343 E0.0129
G1 X138.049 Y106.808 E0.1149
G1 X138.071 Y106.765 E0.1166
G1 X138.203 Y106.540 E0.1262
G1 X138.229 Y106.501 E0.1279
G1 X139.885 Y104.257 E0.2302
G1 X139.915 Y104.221 E0.2319
G1 X140.088 Y104.031 E0.2413
G1 X140.122 Y103.998 E0.2431
G1 X142.212 Y102.145 E0.3455
G1 X142.249 Y102.116 E0.3472
G1 X142.457 Y101.967 E0.3566
G1 X142.497 Y101.942 E0.3583
G1 X144.933 Y100.559 E0.4610
G1 X144.974 Y100.538 E0.4627
G1 X145.206 Y100.436 E0.4720
G1 X145.250 Y100.420 E0.4737
G1 X147.921 Y99.565 E0.5766
G1 X147.966 Y99.553 E0.5783
G1 X148.214 Y99.501 E0.5876
G1 X148.260 Y99.494 E0.5893
G1 X151.056 Y99.204 E0.6924
G1 X151.102 Y99.202 E0.6941
G1 X151.355 Y99.202 E0.7033
G1 X151.402 Y99.204 E0.7050
G1 X154.197 Y99.494 E0.8081
G1 X154.243 Y99.501 E0.8098
G1 X154.491 Y99.553 E0.8191
G1 X154.536 Y99.565 E0.8208
G1 X157.209 Y100.420 E0.9237
G1 X157.252 Y100.437 E0.9254
G1 X157.485 Y100.539 E0.9347
G1 X157.527 Y100.560 E0.9365
G1 X159.957 Y101.943 E1.0390
G1 X159.996 Y101.968 E1.0407
G1 X160.202 Y102.115 E1.0499
G1 X160.238 Y102.144 E1.0516
G1 X162.333 Y103.995 E1.1542
G1 X162.367 Y104.029 E1.1559
G1 X162.542 Y104.219 E1.1654
G1 X162.572 Y104.256 E1.1671
G1 X164.229 Y106.500 E1.2694
G1 X164.255 Y106.540 E1.2712
G1 X164.387 Y106.765 E1.2808
G1 X164.409 Y106.808 E1.2825
G1 X165.551 Y109.343 E1.3845
G1 X165.568 Y109.387 E1.3862
G1 X165.649 Y109.631 E1.3956
G1 X165.661 Y109.677 E1.3974
G1 X166.249 Y112.391 E1.4992
G1 X166.257 Y112.438 E1.5010
G1 X166.284 Y112.698 E1.5105
G1 X166.287 Y112.746 E1.5123
G1 X166.287 Y115.522 E1.6141
G1 X166.284 Y115.570 E1.6158
G1 X166.257 Y115.830 E1.6254
G1 X166.249 Y115.877 E1.6272
G1 X165.661 Y118.592 E1.7290
G1 X165.649 Y118.637 E1.7308
G1 X165.567 Y118.883 E1.7403
G1 X165.550 Y118.927 E1.7420
G1 X164.408 Y121.456 E1.8438
G1 X164.386 Y121.499 E1.8455
G1 X164.255 Y121.723 E1.8550
G1 X164.229 Y121.762 E1.8568
G1 X162.572 Y124.006 E1.9591
G1 X162.542 Y124.043 E1.9608
G1 X162.367 Y124.234 E1.9703
G1 X162.333 Y124.267 E1.9720
G1 X160.238 Y126.119 E2.0746
G1 X160.201 Y126.147 E2.0763
G1 X159.996 Y126.294 E2.0855
G1 X159.957 Y126.320 E2.0872
G1 X157.527 Y127.702 E2.1897
G1 X157.485 Y127.723 E2.1915
G1 X157.252 Y127.825 E2.2008
G1 X157.209 Y127.842 E2.2025
G1 X154.536 Y128.697 E2.3054
G1 X154.491 Y128.709 E2.3071
G1 X154.243 Y128.761 E2.3164
G1 X154.197 Y128.768 E2.3181
G1 X151.402 Y129.058 E2.4212
G1 X151.355 Y129.060 E2.4229
G1 X151.102 Y129.060 E2.4321
G1 X151.056 Y129.058 E2.4338
G1 X148.260 Y128.768 E2.5369
G1 X148.214 Y128.761 E2.5386
G1 X147.966 Y128.709 E2.5479
G1 X147.921 Y128.697 E2.5496
G1 X145.250 Y127.842 E2.6525
G1 X145.206 Y127.826 E2.6542
G1 X144.974 Y127.724 E2.6635
G1 X144.933 Y127.703 E2.6652
G1 X142.497 Y126.320 E2.7679
G1 X142.457 Y126.295 E2.7696
G1 X142.249 Y126.146 E2.7790
G1 X142.212 Y126.117 E2.7807
G1 X140.122 Y124.265 E2.8831
G1 X140.088 Y124.232 E2.8849
G1 X139.915 Y124.042 E2.8943
G1 X139.885 Y124.005 E2.8960
G1 X138.229 Y121.762 E2.9982
G1 X138.203 Y121.723 E3.0000
G1 X138.072 Y121.499 E3.0095
G1 X138.050 Y121.456 E3.0112
G1 X136.907 Y118.927 E3.1130
G1 X136.890 Y118.883 E3.1148
G1 X136.809 Y118.637 E3.1242
G1 X136.797 Y118.592 E3.1260
G1 X136.209 Y115.877 E3.2278
G1 X136.201 Y115.830 E3.2296
G1 X136.173 Y115.570 E3.2392
G1 X136.171 Y115.522 E3.2409
G1 X136.171 Y112.746 E3.3427
G1 X136.173 Y112.698 E3.3445
G1 X136.201 Y112.438 E3.3541
G1 X136.209 Y112.391 E3.3558
G1 X136.796 Y109.677 E3.4577
G92 E0
G1 E-2.5000 F1800
G1 X162.693 Y144.369 F4800
G1 E0.0000 F1800
G92 E0
G1 X162.868 Y144.283 E0.0072 F1800
G1 X180.330 Y139.949 E0.6669
G1 X180.591 Y139.961 E0.6765
G1 X181.962 Y140.438 E0.7297
G1 X182.174 Y140.591 E0.7393
G1 X189.673 Y150.289 E1.1888
G1 X212.653 Y147.298 E2.0386
G1 X213.563 Y118.656 E3.0894
G1 X207.384 Y128.747 E3.5233
G1 X207.138 Y144.901 E4.1157
G1 X207.055 Y145.158 E4.1256
G1 X206.191 Y146.387 E4.1807
G1 X205.977 Y146.553 E4.1906
G1 X199.665 Y148.937 E4.4381
G1 X199.587 Y148.959 E4.4411
G1 X199.150 Y149.039 E4.4573
G1 X199.070 Y149.046 E4.4603
G1 X194.457 Y149.046 E4.6294
G1 X194.381 Y149.039 E4.6322
G1 X193.970 Y148.969 E4.6475
G1 X193.896 Y148.949 E4.6503
G1 X187.199 Y146.581 E4.9108
G1 X186.976 Y146.413 E4.9211
G1 X186.081 Y145.147 E4.9779
G1 X185.996 Y144.881 E4.9881
G1 X185.996 Y127.587 E5.6223
G1 X185.997 Y127.568 E5.6230
G1 X186.001 Y127.463 E5.6268
G1 X186.002 Y127.444 E5.6275
G1 X187.399 Y111.178 E6.2262
G1 X187.227 Y109.227 E6.2980
G1 X180.339 Y56.320 E8.2544
G1 X157.177 Y55.584 E9.1042
G1 X150.660 Y65.968 E9.5538
G1 X150.463 Y66.140 E9.5634
G1 X149.146 Y66.748 E9.6166
G1 X148.887 Y66.786 E9.6262
G1 X131.086 Y64.176 E10.2859
G1 X130.903 Y64.107 E10.2930
G1 X130.005 Y63.521 E10.3324
G1 X129.868 Y63.382 E10.3395
G1 X128.098 Y60.569 E10.4614
G1 X128.049 Y60.463 E10.4657
G1 X127.859 Y59.855 E10.4890
G1 X127.839 Y59.740 E10.4933
G1 X126.941 Y39.506 E11.2360
G1 X127.060 Y39.174 E11.2490
G1 X128.385 Y37.695 E11.3218
G1 X128.702 Y37.540 E11.3347
G1 X147.994 Y36.277 E12.0436
G1 X148.042 Y36.276 E12.0454
G1 X148.303 Y36.287 E12.0550
G1 X148.351 Y36.292 E12.0568
G1 X186.819 Y42.038 E13.4830
G1 X186.915 Y42.063 E13.4866
G1 X187.419 Y42.257 E13.5064
G1 X187.506 Y42.303 E13.5101
G1 X201.853 Y51.855 E14.1421
G1 X201.972 Y51.971 E14.1482
G1 X202.497 Y52.712 E14.1815
G1 X202.567 Y52.862 E14.1875
G1 X214.203 Y98.555 E15.9166
G1 X214.348 Y93.972 E16.0847
G1 X214.330 Y92.013 E16.1566
G1 X211.353 Y75.961 E16.7552
G1 X211.350 Y75.942 E16.7559
G1 X211.336 Y75.838 E16.7598
G1 X211.333 Y75.819 E16.7605
G1 X209.647 Y58.608 E17.3946
G1 X209.705 Y58.335 E17.4049
G1 X210.472 Y56.988 E17.4617
G1 X210.678 Y56.798 E17.4719
G1 X217.112 Y53.788 E17.7324
G1 X217.184 Y53.762 E17.7352
G1 X217.586 Y53.651 E17.7505
G1 X217.661 Y53.637 E17.7533
G1 X222.252 Y53.188 E17.9225
G1 X222.333 Y53.187 E17.9254
G1 X222.775 Y53.224 E17.9417
G1 X222.855 Y53.238 E17.9447
G1 X229.370 Y54.995 E18.1921
G1 X229.599 Y55.139 E18.2020
G1 X230.578 Y56.278 E18.2571
G1 X230.686 Y56.526 E18.2670
G1 X232.506 Y72.579 E18.8595
G1 X240.928 Y83.724 E19.3717
G1 X240.968 Y83.787 E19.3745
G1 X241.157 Y84.149 E19.3894
G1 X241.186 Y84.218 E19.3922
G1 X243.128 Y90.188 E19.6224
G1 X243.139 Y90.227 E19.6239
G1 X243.189 Y90.448 E19.6322
G1 X243.196 Y90.489 E19.6337
G1 X243.532 Y93.046 E19.7283
G1 X243.536 Y93.109 E19.7306
G1 X243.532 Y93.455 E19.7433
G1 X243.527 Y93.518 E19.7456
G1 X235.111 Y148.572 E21.7878
G1 X235.057 Y148.728 E21.7939
G1 X234.607 Y149.517 E21.8272
G1 X234.500 Y149.643 E21.8333
G1 X221.153 Y160.549 E22.4653
G1 X221.070 Y160.603 E22.4689
