; G-Code generated by Simplify3D(R) Version 3.1.0
; Nov 21, 2016 at 5:17:43 PM
; Settings Summary
;   processName,Process1
;   applyToModels,2020stand,Extrusion test profile,Support_base_1
;   profileName,LulzBot TAZ 5 (modified)
;   profileVersion,2015-05-01 08:00:00
;   baseProfile,
;   printMaterial,hatchbox pla
;   printQuality,Medium
;   printExtruders,
;   extruderName,Primary Extruder
;   extruderToolheadNumber,0
;   extruderDiameter,0.5
;   extruderAutoWidth,1
;   extruderWidth,0.6
;   extrusionMultiplier,1
;   extruderUseRetract,1
;   extruderRetractionDistance,2.5
;   extruderExtraRestartDistance,0
;   extruderRetractionZLift,0
;   extruderRetractionSpeed,1800
;   extruderUseCoasting,0
;   extruderCoastingDistance,0.2
;   extruderUseWipe,0
;   extruderWipeDistance,5
;   primaryExtruder,0
;   layerHeight,0.2
;   topSolidLayers,6
;   bottomSolidLayers,3
;   perimeterOutlines,2
;   printPerimetersInsideOut,1
;   startPointOption,2
;   startPointOriginX,0
;   startPointOriginY,0
;   startPointOriginZ,300
;   sequentialIslands,0
;   spiralVaseMode,0
;   firstLayerHeightPercentage,120
;   firstLayerWidthPercentage,180
;   firstLayerUnderspeed,0.5
;   useRaft,0
;   raftExtruder,0
;   raftLayers,3
;   raftOffset,3
;   raftSeparationDistance,0.14
;   raftInfill,85
;   disableRaftBaseLayers,0
;   useSkirt,1
;   skirtExtruder,0
;   skirtLayers,1
;   skirtOutlines,2
;   skirtOffset,2
;   usePrimePillar,0
;   primePillarExtruder,999
;   primePillarWidth,12
;   primePillarLocation,7
;   primePillarSpeedMultiplier,1
;   useOozeShield,0
;   oozeShieldExtruder,999
;   oozeShieldOffset,2
;   oozeShieldOutlines,1
;   oozeShieldSidewallShape,1
;   oozeShieldSidewallAngle,30
;   oozeShieldSpeedMultiplier,1
;   infillExtruder,0
;   internalInfillPattern,Rectilinear
;   externalInfillPattern,Rectilinear
;   infillPercentage,30
;   outlineOverlapPercentage,30
;   infillExtrusionWidthPercentage,200
;   minInfillLength,5
;   infillLayerInterval,1
;   infillAngles,45,-45
;   overlapInfillAngles,0
;   generateSupport,0
;   supportExtruder,0
;   supportInfillPercentage,30
;   supportExtraInflation,1
;   denseSupportLayers,0
;   denseSupportInfillPercentage,70
;   supportLayerInterval,1
;   supportHorizontalPartOffset,0.3
;   supportUpperSeparationLayers,1
;   supportLowerSeparationLayers,2
;   supportType,0
;   supportGridSpacing,4
;   maxOverhangAngle,45
;   supportAngles,0
;   temperatureName,Primary Extruder,Heated Bed
;   temperatureNumber,0,1
;   temperatureSetpointCount,1,1
;   temperatureSetpointLayers,1,1
;   temperatureSetpointTemperatures,210,70
;   temperatureStabilizeAtStartup,1,1
;   temperatureHeatedBed,0,1
;   temperatureRelayBetweenLayers,0,0
;   temperatureRelayBetweenLoops,0,0
;   fanLayers,1,2
;   fanSpeeds,0,100
;   blipFanToFullPower,1
;   adjustSpeedForCooling,1
;   minSpeedLayerTime,15
;   minCoolingSpeedSlowdown,20
;   increaseFanForCooling,0
;   minFanLayerTime,45
;   maxCoolingFanSpeed,100
;   increaseFanForBridging,0
;   bridgingFanSpeed,100
;   use5D,1
;   relativeEdistances,0
;   allowEaxisZeroing,1
;   independentExtruderAxes,0
;   includeM10123,0
;   stickySupport,1
;   applyToolheadOffsets,0
;   gcodeXoffset,0
;   gcodeYoffset,0
;   gcodeZoffset,0
;   overrideMachineDefinition,1
;   machineTypeOverride,0
;   strokeXoverride,298
;   strokeYoverride,275
;   strokeZoverride,250
;   originOffsetXoverride,0
;   originOffsetYoverride,0
;   originOffsetZoverride,0
;   homeXdirOverride,-1
;   homeYdirOverride,-1
;   homeZdirOverride,-1
;   flipXoverride,1
;   flipYoverride,-1
;   flipZoverride,1
;   toolheadOffsets,0,0|0,0|0,0|0,0|0,0|0,0
;   overrideFirmwareConfiguration,1
;   firmwareTypeOverride,RepRap (Marlin/Repetier/Sprinter)
;   GPXconfigOverride,r2
;   baudRateOverride,115200
;   overridePrinterModels,1
;   printerModelsOverride,LulzBot_TAZ3.stl
;   startingGcode,G28 ; home all axes
;   layerChangeGcode,
;   retractionGcode,
;   toolChangeGcode,
;   endingGcode,M104 S0 ; turn off extruder,M140 S0 ; turn off bed,G28 X0 ; home X axis,M84 ; disable motors
;   exportFileFormat,gcode
;   celebration,0
;   celebrationSong,Random Song
;   postProcessing,
;   defaultSpeed,3600
;   outlineUnderspeed,0.5
;   solidInfillUnderspeed,0.8
;   supportUnderspeed,0.8
;   rapidXYspeed,4800
;   rapidZspeed,1000
;   minBridgingArea,50
;   bridgingExtraInflation,0
;   bridgingExtrusionMultiplier,1
;   bridgingSpeedMultiplier,1
;   filamentDiameter,3
;   filamentPricePerKg,46
;   filamentDensity,1.25
;   useMinPrintHeight,0
;   minPrintHeight,0
;   useMaxPrintHeight,0
;   maxPrintHeight,0
;   useDiaphragm,0
;   diaphragmLayerInterval,20
;   robustSlicing,1
;   mergeAllIntoSolid,0
;   onlyRetractWhenCrossingOutline,1
;   retractBetweenLayers,1
;   useRetractionMinTravel,0
;   retractionMinTravel,3
;   retractWhileWiping,0
;   onlyWipeOutlines,1
;   avoidCrossingOutline,0
;   maxMovementDetourFactor,3
;   toolChangeRetractionDistance,12
;   toolChangeExtraRestartDistance,-0.5
;   toolChangeRetractionSpeed,600
;   allowThinWallGapFill,1
;   thinWallAllowedOverlapPercentage,10
;   horizontalSizeCompensation,0
G90
M82
M106 S0
M140 S70
M190 S70
M104 S210 T0
M109 S210 T0
G28 ; home all axes
G92 E0
G1 E-2.5000 F1800
G1 Z0.240 F1000
; layer 1, Z = 0.24
T0
; tool H0.240 W1.080
; skirt
G1 X121.965 Y70.095 F4800
G1 E0.0000 F540
G92 E0
G1 X122.206 Y69.677 E0.0177 F1800
G1 X124.624 Y68.282 E0.1201
G1 X125.106 Y68.282 E0.1377
G1 X148.222 Y81.628 E1.1165
G1 X148.463 Y82.045 E1.1342
G1 X148.463 Y84.837 E1.2366
G1 X148.222 Y85.255 E1.2543
G1 X142.772 Y88.401 E1.4850
G1 X142.543 Y88.463 E1.4937
G1 X141.235 Y88.463 E1.5417
G1 X141.006 Y88.401 E1.5504
G1 X131.439 Y82.878 E1.9555
G1 X131.439 Y93.924 E2.3605
G1 X131.378 Y94.153 E2.3692
G1 X130.723 Y95.287 E2.4172
G1 X130.556 Y95.454 E2.4259
G1 X125.106 Y98.601 E2.6567
G1 X124.624 Y98.601 E2.6743
G1 X122.206 Y97.205 E2.7767
G1 X121.965 Y96.787 E2.7944
G1 X121.965 Y70.095 E3.7732
G92 E0
G1 E-2.5000 F1800
G1 X128.543 Y103.637 F4800
G1 E0.0000 F1800
G92 E0
G1 X129.025 Y103.637 E0.0177 F1800
G1 X144.425 Y112.528 E0.6698
G1 X144.667 Y112.946 E0.6874
G1 X144.667 Y115.738 E0.7898
G1 X144.425 Y116.155 E0.8075
G1 X129.025 Y125.047 E1.4596
G1 X128.543 Y125.047 E1.4773
G1 X126.125 Y123.651 E1.5796
G1 X125.884 Y123.233 E1.5973
G1 X125.884 Y105.450 E2.2494
G1 X126.125 Y105.033 E2.2671
G1 X128.543 Y103.637 E2.3695
G1 X118.032 Y125.999 F4800
G92 E0
G1 X123.482 Y129.145 E0.2308 F1800
G1 X123.723 Y129.563 E0.2484
G1 X123.723 Y132.355 E0.3508
G1 X123.482 Y132.772 E0.3685
G1 X100.366 Y146.118 E1.3473
G1 X99.884 Y146.118 E1.3650
G1 X97.466 Y144.723 E1.4673
G1 X97.225 Y144.305 E1.4850
G1 X97.225 Y117.613 E2.4638
G1 X97.466 Y117.195 E2.4815
G1 X99.884 Y115.799 E2.5839
G1 X100.366 Y115.799 E2.6015
G1 X105.816 Y118.946 E2.8323
G1 X105.984 Y119.113 E2.8410
G1 X106.638 Y120.247 E2.8890
G1 X106.699 Y120.476 E2.8977
G1 X106.699 Y131.522 E3.3027
G1 X116.266 Y125.999 E3.7078
G1 X116.495 Y125.937 E3.7165
G1 X117.804 Y125.937 E3.7645
G1 X118.032 Y125.999 E3.7732
G1 X150.746 Y121.572 F4800
G92 E0
G1 X150.746 Y115.279 E0.2308 F1800
G1 X150.988 Y114.862 E0.2484
G1 X153.405 Y113.466 E0.3508
G1 X153.887 Y113.466 E0.3685
G1 X177.004 Y126.812 E1.3473
G1 X177.245 Y127.229 E1.3650
G1 X177.245 Y130.021 E1.4673
G1 X177.004 Y130.439 E1.4850
G1 X153.887 Y143.785 E2.4638
G1 X153.405 Y143.785 E2.4815
G1 X150.988 Y142.389 E2.5839
G1 X150.746 Y141.971 E2.6015
G1 X150.746 Y135.679 E2.8323
G1 X150.808 Y135.450 E2.8410
G1 X151.462 Y134.316 E2.8890
G1 X151.630 Y134.149 E2.8977
G1 X161.196 Y128.625 E3.3027
G1 X151.630 Y123.102 E3.7078
G1 X151.462 Y122.934 E3.7165
G1 X150.808 Y121.801 E3.7645
G1 X150.746 Y121.572 E3.7732
G1 X150.426 Y162.011 F4800
G92 E0
G1 X150.600 Y162.046 E0.0065 F1800
G1 X151.498 Y162.418 E0.0422
G1 X151.646 Y162.516 E0.0487
G1 X152.454 Y163.324 E0.0906
G1 X152.552 Y163.472 E0.0971
G1 X152.925 Y164.371 E0.1328
G1 X152.959 Y164.544 E0.1393
G1 X152.959 Y185.951 E0.9242
G1 X154.116 Y184.795 E0.9842
G1 X154.446 Y184.658 E0.9973
G1 X157.087 Y184.658 E1.0942
G1 X157.108 Y184.225 E1.1100
G1 X157.115 Y184.168 E1.1121
G1 X157.170 Y183.859 E1.1237
G1 X157.184 Y183.803 E1.1258
G1 X157.396 Y183.129 E1.1517
G1 X157.425 Y183.058 E1.1545
G1 X157.617 Y182.686 E1.1698
G1 X157.658 Y182.621 E1.1727
G1 X158.054 Y182.096 E1.1968
G1 X158.079 Y182.066 E1.1982
G1 X158.223 Y181.906 E1.2061
G1 X158.251 Y181.877 E1.2076
G1 X161.040 Y179.286 E1.3472
G1 X161.092 Y179.245 E1.3496
G1 X161.392 Y179.040 E1.3629
G1 X161.449 Y179.006 E1.3654
G1 X162.048 Y178.715 E1.3898
G1 X162.111 Y178.690 E1.3923
G1 X162.463 Y178.580 E1.4058
G1 X162.529 Y178.565 E1.4083
G1 X163.099 Y178.477 E1.4294
G1 X163.133 Y178.473 E1.4307
G1 X163.319 Y178.459 E1.4375
G1 X163.353 Y178.458 E1.4388
G1 X167.505 Y178.458 E1.5910
G1 X167.522 Y178.458 E1.5916
G1 X167.614 Y178.462 E1.5950
G1 X167.631 Y178.463 E1.5956
G1 X167.962 Y178.487 E1.6078
G1 X168.012 Y178.494 E1.6096
G1 X168.281 Y178.545 E1.6197
G1 X168.330 Y178.557 E1.6215
G1 X168.924 Y178.740 E1.6443
G1 X168.987 Y178.765 E1.6468
G1 X169.319 Y178.925 E1.6603
G1 X169.378 Y178.959 E1.6628
G1 X169.854 Y179.285 E1.6840
G1 X169.882 Y179.305 E1.6852
G1 X170.027 Y179.422 E1.6921
G1 X170.053 Y179.444 E1.6933
G1 X172.659 Y181.880 E1.8241
G1 X172.686 Y181.907 E1.8255
G1 X172.826 Y182.062 E1.8332
G1 X172.850 Y182.092 E1.8346
G1 X173.243 Y182.610 E1.8585
G1 X173.284 Y182.675 E1.8613
G1 X173.476 Y183.045 E1.8766
G1 X173.506 Y183.116 E1.8794
G1 X173.736 Y183.838 E1.9072
G1 X173.753 Y183.913 E1.9100
G1 X173.811 Y184.328 E1.9253
G1 X173.815 Y184.405 E1.9282
G1 X173.807 Y184.658 E1.9375
G1 X176.461 Y184.658 E2.0348
G1 X176.792 Y184.795 E2.0479
G1 X178.217 Y186.220 E2.1218
G1 X178.354 Y186.550 E2.1349
G1 X178.354 Y190.565 E2.2822
G1 X178.217 Y190.896 E2.2953
G1 X176.792 Y192.321 E2.3692
G1 X176.461 Y192.458 E2.3823
G1 X154.446 Y192.458 E3.1896
G1 X154.116 Y192.321 E3.2027
G1 X152.959 Y191.165 E3.2627
G1 X152.959 Y219.117 E4.2877
G1 X152.925 Y219.291 E4.2942
G1 X152.552 Y220.190 E4.3299
G1 X152.454 Y220.338 E4.3364
G1 X151.646 Y221.146 E4.3783
G1 X151.498 Y221.244 E4.3848
G1 X150.600 Y221.616 E4.4204
G1 X150.426 Y221.651 E4.4269
G1 X143.453 Y221.651 E4.6826
G1 X143.279 Y221.616 E4.6891
G1 X142.380 Y221.244 E4.7248
G1 X142.233 Y221.146 E4.7313
G1 X141.425 Y220.338 E4.7732
G1 X141.326 Y220.190 E4.7797
G1 X140.954 Y219.291 E4.8154
G1 X140.919 Y219.117 E4.8219
G1 X140.919 Y209.651 E5.1690
G1 X136.559 Y209.651 E5.3289
G1 X136.559 Y219.117 E5.6760
G1 X136.525 Y219.291 E5.6825
G1 X136.152 Y220.190 E5.7182
G1 X136.054 Y220.337 E5.7247
G1 X135.246 Y221.145 E5.7666
G1 X135.099 Y221.244 E5.7731
G1 X134.200 Y221.616 E5.8088
G1 X134.026 Y221.651 E5.8153
G1 X96.953 Y221.651 E7.1747
G1 X96.779 Y221.616 E7.1812
G1 X95.880 Y221.244 E7.2169
G1 X95.733 Y221.146 E7.2234
G1 X94.925 Y220.338 E7.2653
G1 X94.826 Y220.190 E7.2718
G1 X94.454 Y219.291 E7.3075
G1 X94.419 Y219.117 E7.3140
G1 X94.419 Y209.651 E7.6611
G1 X90.059 Y209.651 E7.8210
G1 X90.059 Y219.117 E8.1681
G1 X90.025 Y219.291 E8.1746
G1 X89.652 Y220.190 E8.2103
G1 X89.554 Y220.338 E8.2168
G1 X88.746 Y221.146 E8.2587
G1 X88.598 Y221.244 E8.2652
G1 X87.700 Y221.616 E8.3009
G1 X87.526 Y221.651 E8.3074
G1 X80.553 Y221.651 E8.5631
G1 X80.379 Y221.616 E8.5696
G1 X79.480 Y221.244 E8.6052
G1 X79.333 Y221.146 E8.6117
G1 X78.525 Y220.338 E8.6536
G1 X78.426 Y220.190 E8.6601
G1 X78.054 Y219.291 E8.6958
G1 X78.019 Y219.117 E8.7023
G1 X78.019 Y164.544 E10.7035
G1 X78.054 Y164.371 E10.7100
G1 X78.426 Y163.472 E10.7456
G1 X78.525 Y163.324 E10.7521
G1 X79.333 Y162.516 E10.7940
G1 X79.480 Y162.418 E10.8005
G1 X80.379 Y162.046 E10.8362
G1 X80.553 Y162.011 E10.8427
G1 X87.526 Y162.011 E11.0984
G1 X87.700 Y162.046 E11.1049
G1 X88.598 Y162.418 E11.1406
G1 X88.746 Y162.516 E11.1471
G1 X89.554 Y163.324 E11.1890
G1 X89.652 Y163.472 E11.1955
G1 X90.025 Y164.371 E11.2312
G1 X90.059 Y164.544 E11.2377
G1 X90.059 Y174.011 E11.5848
G1 X94.419 Y174.011 E11.7447
G1 X94.419 Y164.544 E12.0918
G1 X94.454 Y164.371 E12.0983
G1 X94.826 Y163.472 E12.1340
G1 X94.925 Y163.324 E12.1405
G1 X95.733 Y162.516 E12.1824
G1 X95.880 Y162.418 E12.1889
G1 X96.779 Y162.046 E12.2246
G1 X96.953 Y162.011 E12.2311
G1 X134.026 Y162.011 E13.5905
G1 X134.200 Y162.046 E13.5970
G1 X135.099 Y162.418 E13.6327
G1 X135.246 Y162.516 E13.6392
G1 X136.054 Y163.324 E13.6811
G1 X136.152 Y163.472 E13.6876
G1 X136.525 Y164.371 E13.7233
G1 X136.559 Y164.544 E13.7298
G1 X136.559 Y174.011 E14.0769
G1 X140.919 Y174.011 E14.2368
G1 X140.919 Y164.544 E14.5839
G1 X140.954 Y164.371 E14.5904
G1 X141.326 Y163.472 E14.6261
G1 X141.425 Y163.324 E14.6326
G1 X142.233 Y162.516 E14.6745
G1 X142.380 Y162.418 E14.6810
G1 X143.279 Y162.046 E14.7167
G1 X143.453 Y162.011 E14.7232
G1 X150.426 Y162.011 E14.9788
G1 X150.367 Y162.611 F4800
G92 E0
G1 X150.425 Y162.622 E0.0022 F1800
G1 X151.214 Y162.950 E0.0335
G1 X151.263 Y162.982 E0.0357
G1 X151.988 Y163.707 E0.0732
G1 X152.021 Y163.756 E0.0754
G1 X152.348 Y164.546 E0.1068
G1 X152.359 Y164.604 E0.1089
G1 X152.359 Y219.058 E2.1057
G1 X152.348 Y219.116 E2.1079
G1 X152.021 Y219.906 E2.1392
G1 X151.988 Y219.955 E2.1414
G1 X151.263 Y220.679 E2.1790
G1 X151.214 Y220.712 E2.1811
G1 X150.425 Y221.039 E2.2125
G1 X150.367 Y221.051 E2.2147
G1 X143.512 Y221.051 E2.4660
G1 X143.454 Y221.039 E2.4682
G1 X142.664 Y220.712 E2.4995
G1 X142.615 Y220.680 E2.5017
G1 X141.891 Y219.955 E2.5393
G1 X141.858 Y219.906 E2.5414
G1 X141.531 Y219.116 E2.5728
G1 X141.519 Y219.058 E2.5749
G1 X141.519 Y209.051 E2.9419
G1 X135.959 Y209.051 E3.1458
G1 X135.959 Y219.058 E3.5127
G1 X135.948 Y219.116 E3.5149
G1 X135.621 Y219.906 E3.5462
G1 X135.588 Y219.955 E3.5484
G1 X134.864 Y220.679 E3.5860
G1 X134.814 Y220.712 E3.5881
G1 X134.025 Y221.039 E3.6195
G1 X133.967 Y221.051 E3.6217
G1 X97.012 Y221.051 E4.9768
G1 X96.954 Y221.039 E4.9789
G1 X96.164 Y220.712 E5.0103
G1 X96.115 Y220.679 E5.0124
G1 X95.391 Y219.955 E5.0500
G1 X95.358 Y219.906 E5.0522
G1 X95.031 Y219.116 E5.0835
G1 X95.019 Y219.058 E5.0857
G1 X95.019 Y209.051 E5.4527
G1 X89.459 Y209.051 E5.6565
G1 X89.459 Y219.058 E6.0235
G1 X89.448 Y219.116 E6.0257
G1 X89.121 Y219.906 E6.0570
G1 X89.088 Y219.955 E6.0592
G1 X88.363 Y220.679 E6.0967
G1 X88.314 Y220.712 E6.0989
G1 X87.525 Y221.039 E6.1302
G1 X87.467 Y221.051 E6.1324
G1 X80.612 Y221.051 E6.3838
G1 X80.554 Y221.039 E6.3859
G1 X79.764 Y220.712 E6.4173
G1 X79.715 Y220.680 E6.4194
G1 X78.991 Y219.955 E6.4570
G1 X78.958 Y219.906 E6.4592
G1 X78.631 Y219.116 E6.4905
G1 X78.619 Y219.058 E6.4927
G1 X78.619 Y164.604 E8.4895
G1 X78.631 Y164.546 E8.4917
G1 X78.958 Y163.756 E8.5230
G1 X78.991 Y163.707 E8.5252
G1 X79.715 Y162.982 E8.5628
G1 X79.764 Y162.950 E8.5649
G1 X80.554 Y162.622 E8.5963
G1 X80.612 Y162.611 E8.5984
G1 X87.467 Y162.611 E8.8498
G1 X87.525 Y162.622 E8.8520
G1 X88.314 Y162.950 E8.8833
G1 X88.363 Y162.982 E8.8855
G1 X89.088 Y163.707 E8.9230
G1 X89.121 Y163.756 E8.9252
G1 X89.448 Y164.546 E8.9565
G1 X89.459 Y164.604 E8.9587
G1 X89.459 Y174.611 E9.3257
G1 X95.019 Y174.611 E9.5296
G1 X95.019 Y164.604 E9.8965
G1 X95.031 Y164.546 E9.8987
G1 X95.358 Y163.756 E9.9300
G1 X95.391 Y163.707 E9.9322
G1 X96.115 Y162.982 E9.9698
G1 X96.164 Y162.950 E9.9719
G1 X96.954 Y162.622 E10.0033
G1 X97.012 Y162.611 E10.0054
G1 X133.967 Y162.611 E11.3605
G1 X134.025 Y162.622 E11.3627
G1 X134.814 Y162.950 E11.3941
G1 X134.864 Y162.982 E11.3962
G1 X135.588 Y163.707 E11.4338
G1 X135.621 Y163.756 E11.4360
G1 X135.948 Y164.546 E11.4673
G1 X135.959 Y164.604 E11.4695
G1 X135.959 Y174.611 E11.8364
G1 X141.519 Y174.611 E12.0403
G1 X141.519 Y164.604 E12.4073
G1 X141.531 Y164.546 E12.4094
G1 X141.858 Y163.756 E12.4408
G1 X141.891 Y163.707 E12.4429
G1 X142.615 Y162.982 E12.4805
G1 X142.664 Y162.950 E12.4827
G1 X143.454 Y162.622 E12.5140
G1 X143.512 Y162.611 E12.5162
G1 X150.367 Y162.611 E12.7675
G1 X153.566 Y143.185 F4800
G92 E0
G1 X151.427 Y141.950 E0.0906 F1800
G1 X151.346 Y141.811 E0.0965
G1 X151.346 Y135.758 E0.3184
G1 X151.367 Y135.681 E0.3213
G1 X151.942 Y134.685 E0.3635
G1 X151.998 Y134.629 E0.3664
G1 X162.396 Y128.625 E0.8067
G1 X151.998 Y122.622 E1.2470
G1 X151.942 Y122.566 E1.2499
